
(Header)
(Generated by gcodetools from Inkscape.)
(Using default header. To add your own header create file "header" in the output dir.)
M3 S1
(Header end.)
G21 (All units in mm)
(Start cutting path id: path3132)
(Change tool to Default tool)

G64 P0.001

F4000 ( Raster speed )

M63 P0
g01 X18.432676 Y9.465870

M62 P0(Penetrate)
G01 X20.054616 Y9.465870 Z0.000000
M63 P0

(End cutting path id: path3132)


(Start cutting path id: path3132)
(Change tool to Default tool)

M63 P0
g01 X20.054616 Y9.465870

M62 P0(Penetrate)
G01 X20.054616 Y9.465870 Z0.000000
M63 P0

(End cutting path id: path3132)


(Start cutting path id: path3132)
(Change tool to Default tool)

M63 P0
g01 X20.054616 Y9.518340

M62 P0(Penetrate)
G01 X18.432676 Y9.518340 Z0.000000
M63 P0

(End cutting path id: path3132)


(Start cutting path id: path3132)
(Change tool to Default tool)

M63 P0
g01 X18.432676 Y9.570796

M62 P0(Penetrate)
G01 X20.054616 Y9.570796 Z0.000000
M63 P0

(End cutting path id: path3132)


(Start cutting path id: path3132)
(Change tool to Default tool)

M63 P0
g01 X20.054616 Y9.623251

M62 P0(Penetrate)
G01 X18.432676 Y9.623251 Z0.000000
M63 P0

(End cutting path id: path3132)


(Start cutting path id: path3132)
(Change tool to Default tool)

M63 P0
g01 X18.432676 Y9.675722

M62 P0(Penetrate)
G01 X20.054616 Y9.675722 Z0.000000
M63 P0

(End cutting path id: path3132)


(Start cutting path id: path3132)
(Change tool to Default tool)

M63 P0
g01 X20.054616 Y9.728177

M62 P0(Penetrate)
G01 X18.432676 Y9.728177 Z0.000000
M63 P0

(End cutting path id: path3132)


(Start cutting path id: path3132)
(Change tool to Default tool)

M63 P0
g01 X18.432676 Y9.780632

M62 P0(Penetrate)
G01 X20.054616 Y9.780632 Z0.000000
M63 P0

(End cutting path id: path3132)


(Start cutting path id: path3132)
(Change tool to Default tool)

M63 P0
g01 X20.054616 Y9.833103

M62 P0(Penetrate)
G01 X18.432676 Y9.833103 Z0.000000
M63 P0

(End cutting path id: path3132)


(Start cutting path id: path3132)
(Change tool to Default tool)

M63 P0
g01 X18.432676 Y9.885558

M62 P0(Penetrate)
G01 X20.054616 Y9.885558 Z0.000000
M63 P0

(End cutting path id: path3132)


(Start cutting path id: path3132)
(Change tool to Default tool)

M63 P0
g01 X20.588129 Y10.357701

M62 P0(Penetrate)
G01 X17.899162 Y10.357701 Z0.000000
M63 P0

(End cutting path id: path3132)


(Start cutting path id: path3132)
(Change tool to Default tool)

M63 P0
g01 X17.899162 Y10.410157

M62 P0(Penetrate)
G01 X20.588129 Y10.410157 Z0.000000
M63 P0

(End cutting path id: path3132)


(Start cutting path id: path3132)
(Change tool to Default tool)

M63 P0
g01 X20.588129 Y10.462612

M62 P0(Penetrate)
G01 X17.899162 Y10.462612 Z0.000000
M63 P0

(End cutting path id: path3132)


(Start cutting path id: path3132)
(Change tool to Default tool)

M63 P0
g01 X17.899162 Y10.515082

M62 P0(Penetrate)
G01 X20.588129 Y10.515082 Z0.000000
M63 P0

(End cutting path id: path3132)


(Start cutting path id: path3132)
(Change tool to Default tool)

M63 P0
g01 X20.588129 Y10.567538

M62 P0(Penetrate)
G01 X17.899162 Y10.567538 Z0.000000
M63 P0

(End cutting path id: path3132)


(Start cutting path id: path3132)
(Change tool to Default tool)

M63 P0
g01 X17.899162 Y10.619993

M62 P0(Penetrate)
G01 X20.588129 Y10.619993 Z0.000000
M63 P0

(End cutting path id: path3132)


(Start cutting path id: path3132)
(Change tool to Default tool)

M63 P0
g01 X20.588129 Y10.672464

M62 P0(Penetrate)
G01 X17.899162 Y10.672464 Z0.000000
M63 P0

(End cutting path id: path3132)


(Start cutting path id: path3132)
(Change tool to Default tool)

M63 P0
g01 X17.899162 Y10.724919

M62 P0(Penetrate)
G01 X20.588129 Y10.724919 Z0.000000
M63 P0

(End cutting path id: path3132)


(Start cutting path id: path3132)
(Change tool to Default tool)

M63 P0
g01 X20.588129 Y10.777374

M62 P0(Penetrate)
G01 X17.899162 Y10.777374 Z0.000000
M63 P0

(End cutting path id: path3132)


(Start cutting path id: path3132)
(Change tool to Default tool)

M63 P0
g01 X17.255765 Y11.249518

M62 P0(Penetrate)
G01 X21.229502 Y11.249518 Z0.000000
M63 P0

(End cutting path id: path3132)


(Start cutting path id: path3132)
(Change tool to Default tool)

M63 P0
g01 X21.229502 Y11.249518

M62 P0(Penetrate)
G01 X21.229502 Y11.249518 Z0.000000
G01 X21.229502 Y11.301973 Z0.000000
G01 X21.229502 Y11.301973 Z0.000000
M63 P0

(End cutting path id: path3132)


(Start cutting path id: path3132)
(Change tool to Default tool)

M63 P0
g01 X21.229502 Y11.301973

M62 P0(Penetrate)
G01 X17.255765 Y11.301973 Z0.000000
M63 P0

(End cutting path id: path3132)


(Start cutting path id: path3132)
(Change tool to Default tool)

M63 P0
g01 X17.255765 Y11.354443

M62 P0(Penetrate)
G01 X21.229502 Y11.354443 Z0.000000
M63 P0

(End cutting path id: path3132)


(Start cutting path id: path3132)
(Change tool to Default tool)

M63 P0
g01 X21.229502 Y11.354443

M62 P0(Penetrate)
G01 X21.229502 Y11.354443 Z0.000000
G01 X21.229502 Y11.406899 Z0.000000
G01 X21.229502 Y11.406899 Z0.000000
M63 P0

(End cutting path id: path3132)


(Start cutting path id: path3132)
(Change tool to Default tool)

M63 P0
g01 X21.229502 Y11.406899

M62 P0(Penetrate)
G01 X17.255765 Y11.406899 Z0.000000
M63 P0

(End cutting path id: path3132)


(Start cutting path id: path3132)
(Change tool to Default tool)

M63 P0
g01 X17.255765 Y11.459354

M62 P0(Penetrate)
G01 X21.229502 Y11.459354 Z0.000000
M63 P0

(End cutting path id: path3132)


(Start cutting path id: path3132)
(Change tool to Default tool)

M63 P0
g01 X21.229502 Y11.459354

M62 P0(Penetrate)
G01 X21.229502 Y11.459354 Z0.000000
G01 X21.229502 Y11.511810 Z0.000000
G01 X21.229502 Y11.511810 Z0.000000
M63 P0

(End cutting path id: path3132)


(Start cutting path id: path3132)
(Change tool to Default tool)

M63 P0
g01 X21.229502 Y11.511810

M62 P0(Penetrate)
G01 X17.255765 Y11.511810 Z0.000000
M63 P0

(End cutting path id: path3132)


(Start cutting path id: path3132)
(Change tool to Default tool)

M63 P0
g01 X17.255765 Y11.564280

M62 P0(Penetrate)
G01 X21.229502 Y11.564280 Z0.000000
M63 P0

(End cutting path id: path3132)


(Start cutting path id: path3132)
(Change tool to Default tool)

M63 P0
g01 X21.229502 Y11.564280

M62 P0(Penetrate)
G01 X21.229502 Y11.564280 Z0.000000
G01 X21.229502 Y11.616735 Z0.000000
G01 X21.229502 Y11.616735 Z0.000000
M63 P0

(End cutting path id: path3132)


(Start cutting path id: path3132)
(Change tool to Default tool)

M63 P0
g01 X21.229502 Y11.616735

M62 P0(Penetrate)
G01 X17.255765 Y11.616735 Z0.000000
M63 P0

(End cutting path id: path3132)


(Start cutting path id: path3132)
(Change tool to Default tool)

M63 P0
g01 X18.999443 Y11.669191

M62 P0(Penetrate)
G01 X19.446496 Y11.669191 Z0.000000
M63 P0

(End cutting path id: path3132)


(Start cutting path id: path3132)
(Change tool to Default tool)

M63 P0
g01 X19.446496 Y11.721661

M62 P0(Penetrate)
G01 X18.999443 Y11.721661 Z0.000000
M63 P0

(End cutting path id: path3132)


(Start cutting path id: path3132)
(Change tool to Default tool)

M63 P0
g01 X7.599018 Y11.774116

M62 P0(Penetrate)
G01 X8.139182 Y11.774116 Z0.000000
M63 P0

(End cutting path id: path3132)


(Start cutting path id: path3132)
(Change tool to Default tool)

M63 P0
g01 X8.832029 Y11.774116

M62 P0(Penetrate)
G01 X9.377110 Y11.774116 Z0.000000
M63 P0

(End cutting path id: path3132)


(Start cutting path id: path3132)
(Change tool to Default tool)

M63 P0
g01 X18.999443 Y11.774116

M62 P0(Penetrate)
G01 X19.446496 Y11.774116 Z0.000000
M63 P0

(End cutting path id: path3132)


(Start cutting path id: path3132)
(Change tool to Default tool)

M63 P0
g01 X19.446496 Y11.826572

M62 P0(Penetrate)
G01 X18.999443 Y11.826572 Z0.000000
M63 P0

(End cutting path id: path3132)


(Start cutting path id: path3132)
(Change tool to Default tool)

M63 P0
g01 X9.377110 Y11.826572

M62 P0(Penetrate)
G01 X8.832029 Y11.826572 Z0.000000
M63 P0

(End cutting path id: path3132)


(Start cutting path id: path3132)
(Change tool to Default tool)

M63 P0
g01 X8.139182 Y11.826572

M62 P0(Penetrate)
G01 X7.599018 Y11.826572 Z0.000000
M63 P0

(End cutting path id: path3132)


(Start cutting path id: path3132)
(Change tool to Default tool)

M63 P0
g01 X7.599018 Y11.879042

M62 P0(Penetrate)
G01 X8.139182 Y11.879042 Z0.000000
M63 P0

(End cutting path id: path3132)


(Start cutting path id: path3132)
(Change tool to Default tool)

M63 P0
g01 X8.832029 Y11.879042

M62 P0(Penetrate)
G01 X9.377110 Y11.879042 Z0.000000
M63 P0

(End cutting path id: path3132)


(Start cutting path id: path3132)
(Change tool to Default tool)

M63 P0
g01 X18.999443 Y11.879042

M62 P0(Penetrate)
G01 X19.446496 Y11.879042 Z0.000000
M63 P0

(End cutting path id: path3132)


(Start cutting path id: path3132)
(Change tool to Default tool)

M63 P0
g01 X19.446496 Y11.931497

M62 P0(Penetrate)
G01 X18.999443 Y11.931497 Z0.000000
M63 P0

(End cutting path id: path3132)


(Start cutting path id: path3132)
(Change tool to Default tool)

M63 P0
g01 X9.377110 Y11.931497

M62 P0(Penetrate)
G01 X8.832029 Y11.931497 Z0.000000
M63 P0

(End cutting path id: path3132)


(Start cutting path id: path3132)
(Change tool to Default tool)

M63 P0
g01 X8.139182 Y11.931497

M62 P0(Penetrate)
G01 X7.599018 Y11.931497 Z0.000000
M63 P0

(End cutting path id: path3132)


(Start cutting path id: path3132)
(Change tool to Default tool)

M63 P0
g01 X7.599018 Y11.983953

M62 P0(Penetrate)
G01 X8.139182 Y11.983953 Z0.000000
M63 P0

(End cutting path id: path3132)


(Start cutting path id: path3132)
(Change tool to Default tool)

M63 P0
g01 X8.832029 Y11.983953

M62 P0(Penetrate)
G01 X9.377110 Y11.983953 Z0.000000
M63 P0

(End cutting path id: path3132)


(Start cutting path id: path3132)
(Change tool to Default tool)

M63 P0
g01 X18.999443 Y11.983953

M62 P0(Penetrate)
G01 X19.446496 Y11.983953 Z0.000000
M63 P0

(End cutting path id: path3132)


(Start cutting path id: path3132)
(Change tool to Default tool)

M63 P0
g01 X19.446496 Y12.036423

M62 P0(Penetrate)
G01 X18.999443 Y12.036423 Z0.000000
M63 P0

(End cutting path id: path3132)


(Start cutting path id: path3132)
(Change tool to Default tool)

M63 P0
g01 X9.377110 Y12.036423

M62 P0(Penetrate)
G01 X8.832029 Y12.036423 Z0.000000
M63 P0

(End cutting path id: path3132)


(Start cutting path id: path3132)
(Change tool to Default tool)

M63 P0
g01 X8.139182 Y12.036423

M62 P0(Penetrate)
G01 X7.599018 Y12.036423 Z0.000000
M63 P0

(End cutting path id: path3132)


(Start cutting path id: path3132)
(Change tool to Default tool)

M63 P0
g01 X7.599018 Y12.088878

M62 P0(Penetrate)
G01 X8.139182 Y12.088878 Z0.000000
M63 P0

(End cutting path id: path3132)


(Start cutting path id: path3132)
(Change tool to Default tool)

M63 P0
g01 X8.832029 Y12.088878

M62 P0(Penetrate)
G01 X9.377110 Y12.088878 Z0.000000
M63 P0

(End cutting path id: path3132)


(Start cutting path id: path3132)
(Change tool to Default tool)

M63 P0
g01 X18.999443 Y12.088878

M62 P0(Penetrate)
G01 X19.446496 Y12.088878 Z0.000000
M63 P0

(End cutting path id: path3132)


(Start cutting path id: path3132)
(Change tool to Default tool)

M63 P0
g01 X19.446496 Y12.141334

M62 P0(Penetrate)
G01 X18.999443 Y12.141334 Z0.000000
M63 P0

(End cutting path id: path3132)


(Start cutting path id: path3132)
(Change tool to Default tool)

M63 P0
g01 X9.377110 Y12.141334

M62 P0(Penetrate)
G01 X8.832029 Y12.141334 Z0.000000
M63 P0

(End cutting path id: path3132)


(Start cutting path id: path3132)
(Change tool to Default tool)

M63 P0
g01 X8.139182 Y12.141334

M62 P0(Penetrate)
G01 X7.599018 Y12.141334 Z0.000000
M63 P0

(End cutting path id: path3132)


(Start cutting path id: path3132)
(Change tool to Default tool)

M63 P0
g01 X7.599018 Y12.193789

M62 P0(Penetrate)
G01 X8.139182 Y12.193789 Z0.000000
M63 P0

(End cutting path id: path3132)


(Start cutting path id: path3132)
(Change tool to Default tool)

M63 P0
g01 X8.832029 Y12.193789

M62 P0(Penetrate)
G01 X9.377110 Y12.193789 Z0.000000
M63 P0

(End cutting path id: path3132)


(Start cutting path id: path3132)
(Change tool to Default tool)

M63 P0
g01 X18.999443 Y12.193789

M62 P0(Penetrate)
G01 X19.446496 Y12.193789 Z0.000000
M63 P0

(End cutting path id: path3132)


(Start cutting path id: path3132)
(Change tool to Default tool)

M63 P0
g01 X19.446496 Y12.246260

M62 P0(Penetrate)
G01 X18.999443 Y12.246260 Z0.000000
M63 P0

(End cutting path id: path3132)


(Start cutting path id: path3132)
(Change tool to Default tool)

M63 P0
g01 X9.377110 Y12.246260

M62 P0(Penetrate)
G01 X8.832029 Y12.246260 Z0.000000
M63 P0

(End cutting path id: path3132)


(Start cutting path id: path3132)
(Change tool to Default tool)

M63 P0
g01 X8.139182 Y12.246260

M62 P0(Penetrate)
G01 X7.599018 Y12.246260 Z0.000000
M63 P0

(End cutting path id: path3132)


(Start cutting path id: path3132)
(Change tool to Default tool)

M63 P0
g01 X7.599018 Y12.298715

M62 P0(Penetrate)
G01 X8.139182 Y12.298715 Z0.000000
M63 P0

(End cutting path id: path3132)


(Start cutting path id: path3132)
(Change tool to Default tool)

M63 P0
g01 X8.832029 Y12.298715

M62 P0(Penetrate)
G01 X9.377110 Y12.298715 Z0.000000
M63 P0

(End cutting path id: path3132)


(Start cutting path id: path3132)
(Change tool to Default tool)

M63 P0
g01 X18.999443 Y12.298715

M62 P0(Penetrate)
G01 X19.446496 Y12.298715 Z0.000000
M63 P0

(End cutting path id: path3132)


(Start cutting path id: path3132)
(Change tool to Default tool)

M63 P0
g01 X19.446496 Y12.351170

M62 P0(Penetrate)
G01 X18.999443 Y12.351170 Z0.000000
M63 P0

(End cutting path id: path3132)


(Start cutting path id: path3132)
(Change tool to Default tool)

M63 P0
g01 X9.377110 Y12.351170

M62 P0(Penetrate)
G01 X8.832029 Y12.351170 Z0.000000
M63 P0

(End cutting path id: path3132)


(Start cutting path id: path3132)
(Change tool to Default tool)

M63 P0
g01 X8.139182 Y12.351170

M62 P0(Penetrate)
G01 X7.599018 Y12.351170 Z0.000000
M63 P0

(End cutting path id: path3132)


(Start cutting path id: path3132)
(Change tool to Default tool)

M63 P0
g01 X7.599018 Y12.403641

M62 P0(Penetrate)
G01 X8.139182 Y12.403641 Z0.000000
M63 P0

(End cutting path id: path3132)


(Start cutting path id: path3132)
(Change tool to Default tool)

M63 P0
g01 X8.832029 Y12.403641

M62 P0(Penetrate)
G01 X9.377110 Y12.403641 Z0.000000
M63 P0

(End cutting path id: path3132)


(Start cutting path id: path3132)
(Change tool to Default tool)

M63 P0
g01 X18.999443 Y12.403641

M62 P0(Penetrate)
G01 X19.446496 Y12.403641 Z0.000000
M63 P0

(End cutting path id: path3132)


(Start cutting path id: path3132)
(Change tool to Default tool)

M63 P0
g01 X19.446496 Y12.456096

M62 P0(Penetrate)
G01 X18.999443 Y12.456096 Z0.000000
M63 P0

(End cutting path id: path3132)


(Start cutting path id: path3132)
(Change tool to Default tool)

M63 P0
g01 X9.377110 Y12.456096

M62 P0(Penetrate)
G01 X8.832029 Y12.456096 Z0.000000
M63 P0

(End cutting path id: path3132)


(Start cutting path id: path3132)
(Change tool to Default tool)

M63 P0
g01 X8.139182 Y12.456096

M62 P0(Penetrate)
G01 X7.599018 Y12.456096 Z0.000000
M63 P0

(End cutting path id: path3132)


(Start cutting path id: path3132)
(Change tool to Default tool)

M63 P0
g01 X3.538428 Y12.456096

M62 P0(Penetrate)
G01 X3.093250 Y12.456096 Z0.000000
M63 P0

(End cutting path id: path3132)


(Start cutting path id: path3132)
(Change tool to Default tool)

M63 P0
g01 X2.974096 Y12.508552

M62 P0(Penetrate)
G01 X3.657500 Y12.508552 Z0.000000
M63 P0

(End cutting path id: path3132)


(Start cutting path id: path3132)
(Change tool to Default tool)

M63 P0
g01 X7.599018 Y12.508552

M62 P0(Penetrate)
G01 X8.139182 Y12.508552 Z0.000000
M63 P0

(End cutting path id: path3132)


(Start cutting path id: path3132)
(Change tool to Default tool)

M63 P0
g01 X8.832029 Y12.508552

M62 P0(Penetrate)
G01 X9.377110 Y12.508552 Z0.000000
M63 P0

(End cutting path id: path3132)


(Start cutting path id: path3132)
(Change tool to Default tool)

M63 P0
g01 X18.999443 Y12.508552

M62 P0(Penetrate)
G01 X19.446496 Y12.508552 Z0.000000
M63 P0

(End cutting path id: path3132)


(Start cutting path id: path3132)
(Change tool to Default tool)

M63 P0
g01 X19.446496 Y12.561022

M62 P0(Penetrate)
G01 X18.999443 Y12.561022 Z0.000000
M63 P0

(End cutting path id: path3132)


(Start cutting path id: path3132)
(Change tool to Default tool)

M63 P0
g01 X9.377110 Y12.561022

M62 P0(Penetrate)
G01 X8.832029 Y12.561022 Z0.000000
M63 P0

(End cutting path id: path3132)


(Start cutting path id: path3132)
(Change tool to Default tool)

M63 P0
g01 X8.139182 Y12.561022

M62 P0(Penetrate)
G01 X7.599018 Y12.561022 Z0.000000
M63 P0

(End cutting path id: path3132)


(Start cutting path id: path3132)
(Change tool to Default tool)

M63 P0
g01 X3.737374 Y12.561022

M62 P0(Penetrate)
G01 X2.894151 Y12.561022 Z0.000000
M63 P0

(End cutting path id: path3132)


(Start cutting path id: path3132)
(Change tool to Default tool)

M63 P0
g01 X2.833093 Y12.613477

M62 P0(Penetrate)
G01 X3.798368 Y12.613477 Z0.000000
M63 P0

(End cutting path id: path3132)


(Start cutting path id: path3132)
(Change tool to Default tool)

M63 P0
g01 X7.599018 Y12.613477

M62 P0(Penetrate)
G01 X8.139182 Y12.613477 Z0.000000
M63 P0

(End cutting path id: path3132)


(Start cutting path id: path3132)
(Change tool to Default tool)

M63 P0
g01 X8.832029 Y12.613477

M62 P0(Penetrate)
G01 X9.377110 Y12.613477 Z0.000000
M63 P0

(End cutting path id: path3132)


(Start cutting path id: path3132)
(Change tool to Default tool)

M63 P0
g01 X18.999443 Y12.613477

M62 P0(Penetrate)
G01 X19.446496 Y12.613477 Z0.000000
M63 P0

(End cutting path id: path3132)


(Start cutting path id: path3132)
(Change tool to Default tool)

M63 P0
g01 X19.446496 Y12.665933

M62 P0(Penetrate)
G01 X18.999443 Y12.665933 Z0.000000
M63 P0

(End cutting path id: path3132)


(Start cutting path id: path3132)
(Change tool to Default tool)

M63 P0
g01 X9.377110 Y12.665933

M62 P0(Penetrate)
G01 X8.832029 Y12.665933 Z0.000000
M63 P0

(End cutting path id: path3132)


(Start cutting path id: path3132)
(Change tool to Default tool)

M63 P0
g01 X8.139182 Y12.665933

M62 P0(Penetrate)
G01 X7.599018 Y12.665933 Z0.000000
M63 P0

(End cutting path id: path3132)


(Start cutting path id: path3132)
(Change tool to Default tool)

M63 P0
g01 X3.847307 Y12.665933

M62 P0(Penetrate)
G01 X2.784144 Y12.665933 Z0.000000
M63 P0

(End cutting path id: path3132)


(Start cutting path id: path3132)
(Change tool to Default tool)

M63 P0
g01 X2.744222 Y12.718403

M62 P0(Penetrate)
G01 X3.887265 Y12.718403 Z0.000000
M63 P0

(End cutting path id: path3132)


(Start cutting path id: path3132)
(Change tool to Default tool)

M63 P0
g01 X7.599018 Y12.718403

M62 P0(Penetrate)
G01 X8.139182 Y12.718403 Z0.000000
M63 P0

(End cutting path id: path3132)


(Start cutting path id: path3132)
(Change tool to Default tool)

M63 P0
g01 X8.832029 Y12.718403

M62 P0(Penetrate)
G01 X9.377110 Y12.718403 Z0.000000
M63 P0

(End cutting path id: path3132)


(Start cutting path id: path3132)
(Change tool to Default tool)

M63 P0
g01 X18.999443 Y12.718403

M62 P0(Penetrate)
G01 X19.446496 Y12.718403 Z0.000000
M63 P0

(End cutting path id: path3132)


(Start cutting path id: path3132)
(Change tool to Default tool)

M63 P0
g01 X19.446496 Y12.770855

M62 P0(Penetrate)
G01 X18.999443 Y12.770855 Z0.000000
M63 P0

(End cutting path id: path3132)


(Start cutting path id: path3132)
(Change tool to Default tool)

M63 P0
g01 X9.377110 Y12.770855

M62 P0(Penetrate)
G01 X8.832029 Y12.770855 Z0.000000
M63 P0

(End cutting path id: path3132)


(Start cutting path id: path3132)
(Change tool to Default tool)

M63 P0
g01 X8.139182 Y12.770855

M62 P0(Penetrate)
G01 X7.599018 Y12.770855 Z0.000000
M63 P0

(End cutting path id: path3132)


(Start cutting path id: path3132)
(Change tool to Default tool)

M63 P0
g01 X3.920087 Y12.770855

M62 P0(Penetrate)
G01 X2.711572 Y12.770855 Z0.000000
M63 P0

(End cutting path id: path3132)


(Start cutting path id: path3132)
(Change tool to Default tool)

M63 P0
g01 X2.685053 Y12.823317

M62 P0(Penetrate)
G01 X3.176697 Y12.823317 Z0.000000
M63 P0

(End cutting path id: path3132)


(Start cutting path id: path3132)
(Change tool to Default tool)

M63 P0
g01 X3.457866 Y12.823317

M62 P0(Penetrate)
G01 X3.946915 Y12.823317 Z0.000000
M63 P0

(End cutting path id: path3132)


(Start cutting path id: path3132)
(Change tool to Default tool)

M63 P0
g01 X7.599018 Y12.823317

M62 P0(Penetrate)
G01 X8.139182 Y12.823317 Z0.000000
M63 P0

(End cutting path id: path3132)


(Start cutting path id: path3132)
(Change tool to Default tool)

M63 P0
g01 X8.832029 Y12.823317

M62 P0(Penetrate)
G01 X9.377110 Y12.823317 Z0.000000
M63 P0

(End cutting path id: path3132)


(Start cutting path id: path3132)
(Change tool to Default tool)

M63 P0
g01 X18.999443 Y12.823317

M62 P0(Penetrate)
G01 X19.446496 Y12.823317 Z0.000000
M63 P0

(End cutting path id: path3132)


(Start cutting path id: path3132)
(Change tool to Default tool)

M63 P0
g01 X19.446496 Y12.875777

M62 P0(Penetrate)
G01 X18.999443 Y12.875777 Z0.000000
M63 P0

(End cutting path id: path3132)


(Start cutting path id: path3132)
(Change tool to Default tool)

M63 P0
g01 X9.377110 Y12.875777

M62 P0(Penetrate)
G01 X8.832029 Y12.875777 Z0.000000
M63 P0

(End cutting path id: path3132)


(Start cutting path id: path3132)
(Change tool to Default tool)

M63 P0
g01 X8.139182 Y12.875777

M62 P0(Penetrate)
G01 X7.599018 Y12.875777 Z0.000000
M63 P0

(End cutting path id: path3132)


(Start cutting path id: path3132)
(Change tool to Default tool)

M63 P0
g01 X3.968483 Y12.875777

M62 P0(Penetrate)
G01 X3.534501 Y12.875777 Z0.000000
M63 P0

(End cutting path id: path3132)


(Start cutting path id: path3132)
(Change tool to Default tool)

M63 P0
g01 X3.101814 Y12.875777

M62 P0(Penetrate)
G01 X2.663885 Y12.875777 Z0.000000
M63 P0

(End cutting path id: path3132)


(Start cutting path id: path3132)
(Change tool to Default tool)

M63 P0
g01 X2.647519 Y12.928236

M62 P0(Penetrate)
G01 X3.055041 Y12.928236 Z0.000000
M63 P0

(End cutting path id: path3132)


(Start cutting path id: path3132)
(Change tool to Default tool)

M63 P0
g01 X3.581363 Y12.928236

M62 P0(Penetrate)
G01 X8.139182 Y12.928236 Z0.000000
M63 P0

(End cutting path id: path3132)


(Start cutting path id: path3132)
(Change tool to Default tool)

M63 P0
g01 X8.832029 Y12.928236

M62 P0(Penetrate)
G01 X19.446496 Y12.928236 Z0.000000
M63 P0

(End cutting path id: path3132)


(Start cutting path id: path3132)
(Change tool to Default tool)

M63 P0
g01 X19.446496 Y12.980696

M62 P0(Penetrate)
G01 X8.832029 Y12.980696 Z0.000000
M63 P0

(End cutting path id: path3132)


(Start cutting path id: path3132)
(Change tool to Default tool)

M63 P0
g01 X8.139182 Y12.980696

M62 P0(Penetrate)
G01 X3.611768 Y12.980696 Z0.000000
M63 P0

(End cutting path id: path3132)


(Start cutting path id: path3132)
(Change tool to Default tool)

M63 P0
g01 X3.024728 Y12.980696

M62 P0(Penetrate)
G01 X2.635562 Y12.980696 Z0.000000
M63 P0

(End cutting path id: path3132)


(Start cutting path id: path3132)
(Change tool to Default tool)

M63 P0
g01 X2.627731 Y13.033156

M62 P0(Penetrate)
G01 X3.006391 Y13.033156 Z0.000000
M63 P0

(End cutting path id: path3132)


(Start cutting path id: path3132)
(Change tool to Default tool)

M63 P0
g01 X3.630199 Y13.033156

M62 P0(Penetrate)
G01 X8.139182 Y13.033156 Z0.000000
M63 P0

(End cutting path id: path3132)


(Start cutting path id: path3132)
(Change tool to Default tool)

M63 P0
g01 X8.832029 Y13.033156

M62 P0(Penetrate)
G01 X19.446495 Y13.033156 Z0.000000
M63 P0

(End cutting path id: path3132)


(Start cutting path id: path3132)
(Change tool to Default tool)

M63 P0
g01 X19.446495 Y13.085616

M62 P0(Penetrate)
G01 X8.832029 Y13.085616 Z0.000000
M63 P0

(End cutting path id: path3132)


(Start cutting path id: path3132)
(Change tool to Default tool)

M63 P0
g01 X8.139182 Y13.085616

M62 P0(Penetrate)
G01 X3.638905 Y13.085616 Z0.000000
M63 P0

(End cutting path id: path3132)


(Start cutting path id: path3132)
(Change tool to Default tool)

M63 P0
g01 X2.997744 Y13.085616

M62 P0(Penetrate)
G01 X2.623833 Y13.085616 Z0.000000
M63 P0

(End cutting path id: path3132)


(Start cutting path id: path3132)
(Change tool to Default tool)

M63 P0
g01 X2.623314 Y13.113147

M62 P0(Penetrate)
G01 X2.623314 Y13.113147 Z0.000000
M63 P0

(End cutting path id: path3132)


(Start cutting path id: path3132)
(Change tool to Default tool)

M63 P0
g01 X2.623744 Y13.138076

M62 P0(Penetrate)
G01 X2.997540 Y13.138076 Z0.000000
M63 P0

(End cutting path id: path3132)


(Start cutting path id: path3132)
(Change tool to Default tool)

M63 P0
g01 X3.639072 Y13.138076

M62 P0(Penetrate)
G01 X8.139186 Y13.138076 Z0.000000
M63 P0

(End cutting path id: path3132)


(Start cutting path id: path3132)
(Change tool to Default tool)

M63 P0
g01 X8.832033 Y13.138076

M62 P0(Penetrate)
G01 X19.446499 Y13.138076 Z0.000000
M63 P0

(End cutting path id: path3132)


(Start cutting path id: path3132)
(Change tool to Default tool)

M63 P0
g01 X19.446499 Y13.190536

M62 P0(Penetrate)
G01 X8.832033 Y13.190536 Z0.000000
M63 P0

(End cutting path id: path3132)


(Start cutting path id: path3132)
(Change tool to Default tool)

M63 P0
g01 X8.139186 Y13.190536

M62 P0(Penetrate)
G01 X3.630601 Y13.190536 Z0.000000
M63 P0

(End cutting path id: path3132)


(Start cutting path id: path3132)
(Change tool to Default tool)

M63 P0
g01 X3.005504 Y13.190536

M62 P0(Penetrate)
G01 X2.627456 Y13.190536 Z0.000000
M63 P0

(End cutting path id: path3132)


(Start cutting path id: path3132)
(Change tool to Default tool)

M63 P0
g01 X2.635099 Y13.242996

M62 P0(Penetrate)
G01 X3.022444 Y13.242996 Z0.000000
M63 P0

(End cutting path id: path3132)


(Start cutting path id: path3132)
(Change tool to Default tool)

M63 P0
g01 X3.612644 Y13.242996

M62 P0(Penetrate)
G01 X8.139186 Y13.242996 Z0.000000
M63 P0

(End cutting path id: path3132)


(Start cutting path id: path3132)
(Change tool to Default tool)

M63 P0
g01 X8.832033 Y13.242996

M62 P0(Penetrate)
G01 X19.446500 Y13.242996 Z0.000000
M63 P0

(End cutting path id: path3132)


(Start cutting path id: path3132)
(Change tool to Default tool)

M63 P0
g01 X19.446500 Y13.295455

M62 P0(Penetrate)
G01 X8.832033 Y13.295455 Z0.000000
M63 P0

(End cutting path id: path3132)


(Start cutting path id: path3132)
(Change tool to Default tool)

M63 P0
g01 X8.139186 Y13.295455

M62 P0(Penetrate)
G01 X3.583379 Y13.295455 Z0.000000
M63 P0

(End cutting path id: path3132)


(Start cutting path id: path3132)
(Change tool to Default tool)

M63 P0
g01 X3.050343 Y13.295455

M62 P0(Penetrate)
G01 X2.646864 Y13.295455 Z0.000000
M63 P0

(End cutting path id: path3132)


(Start cutting path id: path3132)
(Change tool to Default tool)

M63 P0
g01 X2.663028 Y13.347915

M62 P0(Penetrate)
G01 X3.093826 Y13.347915 Z0.000000
M63 P0

(End cutting path id: path3132)


(Start cutting path id: path3132)
(Change tool to Default tool)

M63 P0
g01 X3.538624 Y13.347915

M62 P0(Penetrate)
G01 X3.964389 Y13.347915 Z0.000000
M63 P0

(End cutting path id: path3132)


(Start cutting path id: path3132)
(Change tool to Default tool)

M63 P0
g01 X5.388626 Y13.347915

M62 P0(Penetrate)
G01 X5.933998 Y13.347915 Z0.000000
M63 P0

(End cutting path id: path3132)


(Start cutting path id: path3132)
(Change tool to Default tool)

M63 P0
g01 X7.599022 Y13.347915

M62 P0(Penetrate)
G01 X8.139186 Y13.347915 Z0.000000
M63 P0

(End cutting path id: path3132)


(Start cutting path id: path3132)
(Change tool to Default tool)

M63 P0
g01 X8.832033 Y13.347915

M62 P0(Penetrate)
G01 X9.377114 Y13.347915 Z0.000000
M63 P0

(End cutting path id: path3132)


(Start cutting path id: path3132)
(Change tool to Default tool)

M63 P0
g01 X9.377114 Y13.400375

M62 P0(Penetrate)
G01 X8.832033 Y13.400375 Z0.000000
M63 P0

(End cutting path id: path3132)


(Start cutting path id: path3132)
(Change tool to Default tool)

M63 P0
g01 X8.139186 Y13.400375

M62 P0(Penetrate)
G01 X7.599022 Y13.400375 Z0.000000
M63 P0

(End cutting path id: path3132)


(Start cutting path id: path3132)
(Change tool to Default tool)

M63 P0
g01 X5.933998 Y13.400375

M62 P0(Penetrate)
G01 X5.388626 Y13.400375 Z0.000000
M63 P0

(End cutting path id: path3132)


(Start cutting path id: path3132)
(Change tool to Default tool)

M63 P0
g01 X3.943015 Y13.400375

M62 P0(Penetrate)
G01 X3.465458 Y13.400375 Z0.000000
M63 P0

(End cutting path id: path3132)


(Start cutting path id: path3132)
(Change tool to Default tool)

M63 P0
g01 X3.165606 Y13.400375

M62 P0(Penetrate)
G01 X2.683979 Y13.400375 Z0.000000
M63 P0

(End cutting path id: path3132)


(Start cutting path id: path3132)
(Change tool to Default tool)

M63 P0
g01 X2.710257 Y13.452835

M62 P0(Penetrate)
G01 X3.916401 Y13.452835 Z0.000000
M63 P0

(End cutting path id: path3132)


(Start cutting path id: path3132)
(Change tool to Default tool)

M63 P0
g01 X5.388626 Y13.452835

M62 P0(Penetrate)
G01 X5.933998 Y13.452835 Z0.000000
M63 P0

(End cutting path id: path3132)


(Start cutting path id: path3132)
(Change tool to Default tool)

M63 P0
g01 X7.599022 Y13.452835

M62 P0(Penetrate)
G01 X8.139186 Y13.452835 Z0.000000
M63 P0

(End cutting path id: path3132)


(Start cutting path id: path3132)
(Change tool to Default tool)

M63 P0
g01 X8.832033 Y13.452835

M62 P0(Penetrate)
G01 X9.377114 Y13.452835 Z0.000000
M63 P0

(End cutting path id: path3132)


(Start cutting path id: path3132)
(Change tool to Default tool)

M63 P0
g01 X9.377114 Y13.505295

M62 P0(Penetrate)
G01 X8.832033 Y13.505295 Z0.000000
M63 P0

(End cutting path id: path3132)


(Start cutting path id: path3132)
(Change tool to Default tool)

M63 P0
g01 X8.139186 Y13.505295

M62 P0(Penetrate)
G01 X7.599022 Y13.505295 Z0.000000
M63 P0

(End cutting path id: path3132)


(Start cutting path id: path3132)
(Change tool to Default tool)

M63 P0
g01 X5.933998 Y13.505295

M62 P0(Penetrate)
G01 X5.388626 Y13.505295 Z0.000000
M63 P0

(End cutting path id: path3132)


(Start cutting path id: path3132)
(Change tool to Default tool)

M63 P0
g01 X3.883820 Y13.505295

M62 P0(Penetrate)
G01 X2.742628 Y13.505295 Z0.000000
M63 P0

(End cutting path id: path3132)


(Start cutting path id: path3132)
(Change tool to Default tool)

M63 P0
g01 X2.782210 Y13.557756

M62 P0(Penetrate)
G01 X3.844182 Y13.557756 Z0.000000
M63 P0

(End cutting path id: path3132)


(Start cutting path id: path3132)
(Change tool to Default tool)

M63 P0
g01 X5.388626 Y13.557756

M62 P0(Penetrate)
G01 X5.933998 Y13.557756 Z0.000000
M63 P0

(End cutting path id: path3132)


(Start cutting path id: path3132)
(Change tool to Default tool)

M63 P0
g01 X7.599022 Y13.557756

M62 P0(Penetrate)
G01 X8.139186 Y13.557756 Z0.000000
M63 P0

(End cutting path id: path3132)


(Start cutting path id: path3132)
(Change tool to Default tool)

M63 P0
g01 X8.832033 Y13.557756

M62 P0(Penetrate)
G01 X9.377114 Y13.557756 Z0.000000
M63 P0

(End cutting path id: path3132)


(Start cutting path id: path3132)
(Change tool to Default tool)

M63 P0
g01 X9.377114 Y13.610216

M62 P0(Penetrate)
G01 X8.832033 Y13.610216 Z0.000000
M63 P0

(End cutting path id: path3132)


(Start cutting path id: path3132)
(Change tool to Default tool)

M63 P0
g01 X8.139186 Y13.610216

M62 P0(Penetrate)
G01 X7.599022 Y13.610216 Z0.000000
M63 P0

(End cutting path id: path3132)


(Start cutting path id: path3132)
(Change tool to Default tool)

M63 P0
g01 X5.933998 Y13.610216

M62 P0(Penetrate)
G01 X5.388626 Y13.610216 Z0.000000
M63 P0

(End cutting path id: path3132)


(Start cutting path id: path3132)
(Change tool to Default tool)

M63 P0
g01 X3.795752 Y13.610216

M62 P0(Penetrate)
G01 X2.830724 Y13.610216 Z0.000000
M63 P0

(End cutting path id: path3132)


(Start cutting path id: path3132)
(Change tool to Default tool)

M63 P0
g01 X2.891195 Y13.662676

M62 P0(Penetrate)
G01 X3.735494 Y13.662676 Z0.000000
M63 P0

(End cutting path id: path3132)


(Start cutting path id: path3132)
(Change tool to Default tool)

M63 P0
g01 X5.388626 Y13.662676

M62 P0(Penetrate)
G01 X5.933998 Y13.662676 Z0.000000
M63 P0

(End cutting path id: path3132)


(Start cutting path id: path3132)
(Change tool to Default tool)

M63 P0
g01 X7.599022 Y13.662676

M62 P0(Penetrate)
G01 X8.139186 Y13.662676 Z0.000000
M63 P0

(End cutting path id: path3132)


(Start cutting path id: path3132)
(Change tool to Default tool)

M63 P0
g01 X8.832033 Y13.662676

M62 P0(Penetrate)
G01 X9.377114 Y13.662676 Z0.000000
M63 P0

(End cutting path id: path3132)


(Start cutting path id: path3132)
(Change tool to Default tool)

M63 P0
g01 X9.377114 Y13.715136

M62 P0(Penetrate)
G01 X8.832033 Y13.715136 Z0.000000
M63 P0

(End cutting path id: path3132)


(Start cutting path id: path3132)
(Change tool to Default tool)

M63 P0
g01 X8.139186 Y13.715136

M62 P0(Penetrate)
G01 X7.599022 Y13.715136 Z0.000000
M63 P0

(End cutting path id: path3132)


(Start cutting path id: path3132)
(Change tool to Default tool)

M63 P0
g01 X5.933998 Y13.715136

M62 P0(Penetrate)
G01 X5.388626 Y13.715136 Z0.000000
M63 P0

(End cutting path id: path3132)


(Start cutting path id: path3132)
(Change tool to Default tool)

M63 P0
g01 X3.657141 Y13.715136

M62 P0(Penetrate)
G01 X2.970019 Y13.715136 Z0.000000
M63 P0

(End cutting path id: path3132)


(Start cutting path id: path3132)
(Change tool to Default tool)

M63 P0
g01 X3.086052 Y13.767596

M62 P0(Penetrate)
G01 X3.542305 Y13.767596 Z0.000000
M63 P0

(End cutting path id: path3132)


(Start cutting path id: path3132)
(Change tool to Default tool)

M63 P0
g01 X5.388626 Y13.767596

M62 P0(Penetrate)
G01 X5.933998 Y13.767596 Z0.000000
M63 P0

(End cutting path id: path3132)


(Start cutting path id: path3132)
(Change tool to Default tool)

M63 P0
g01 X7.599022 Y13.767596

M62 P0(Penetrate)
G01 X8.139186 Y13.767596 Z0.000000
M63 P0

(End cutting path id: path3132)


(Start cutting path id: path3132)
(Change tool to Default tool)

M63 P0
g01 X8.832033 Y13.767596

M62 P0(Penetrate)
G01 X9.377114 Y13.767596 Z0.000000
M63 P0

(End cutting path id: path3132)


(Start cutting path id: path3132)
(Change tool to Default tool)

M63 P0
g01 X9.377114 Y13.820056

M62 P0(Penetrate)
G01 X8.832033 Y13.820056 Z0.000000
M63 P0

(End cutting path id: path3132)


(Start cutting path id: path3132)
(Change tool to Default tool)

M63 P0
g01 X8.139186 Y13.820056

M62 P0(Penetrate)
G01 X7.599022 Y13.820056 Z0.000000
M63 P0

(End cutting path id: path3132)


(Start cutting path id: path3132)
(Change tool to Default tool)

M63 P0
g01 X5.933998 Y13.820056

M62 P0(Penetrate)
G01 X5.388626 Y13.820056 Z0.000000
M63 P0

(End cutting path id: path3132)


(Start cutting path id: path3132)
(Change tool to Default tool)

M63 P0
g01 X5.388626 Y13.872515

M62 P0(Penetrate)
G01 X5.933998 Y13.872515 Z0.000000
M63 P0

(End cutting path id: path3132)


(Start cutting path id: path3132)
(Change tool to Default tool)

M63 P0
g01 X7.599022 Y13.872515

M62 P0(Penetrate)
G01 X8.139186 Y13.872515 Z0.000000
M63 P0

(End cutting path id: path3132)


(Start cutting path id: path3132)
(Change tool to Default tool)

M63 P0
g01 X8.832033 Y13.872515

M62 P0(Penetrate)
G01 X9.377114 Y13.872515 Z0.000000
M63 P0

(End cutting path id: path3132)


(Start cutting path id: path3132)
(Change tool to Default tool)

M63 P0
g01 X9.377114 Y13.924975

M62 P0(Penetrate)
G01 X8.832033 Y13.924975 Z0.000000
M63 P0

(End cutting path id: path3132)


(Start cutting path id: path3132)
(Change tool to Default tool)

M63 P0
g01 X8.139186 Y13.924975

M62 P0(Penetrate)
G01 X7.599022 Y13.924975 Z0.000000
M63 P0

(End cutting path id: path3132)


(Start cutting path id: path3132)
(Change tool to Default tool)

M63 P0
g01 X5.933998 Y13.924975

M62 P0(Penetrate)
G01 X5.388626 Y13.924975 Z0.000000
M63 P0

(End cutting path id: path3132)


(Start cutting path id: path3132)
(Change tool to Default tool)

M63 P0
g01 X5.388626 Y13.977435

M62 P0(Penetrate)
G01 X5.933998 Y13.977435 Z0.000000
M63 P0

(End cutting path id: path3132)


(Start cutting path id: path3132)
(Change tool to Default tool)

M63 P0
g01 X7.599022 Y13.977435

M62 P0(Penetrate)
G01 X8.139186 Y13.977435 Z0.000000
M63 P0

(End cutting path id: path3132)


(Start cutting path id: path3132)
(Change tool to Default tool)

M63 P0
g01 X8.832033 Y13.977435

M62 P0(Penetrate)
G01 X9.377114 Y13.977435 Z0.000000
M63 P0

(End cutting path id: path3132)


(Start cutting path id: path3132)
(Change tool to Default tool)

M63 P0
g01 X9.377114 Y14.029895

M62 P0(Penetrate)
G01 X8.832033 Y14.029895 Z0.000000
M63 P0

(End cutting path id: path3132)


(Start cutting path id: path3132)
(Change tool to Default tool)

M63 P0
g01 X8.139186 Y14.029895

M62 P0(Penetrate)
G01 X7.599022 Y14.029895 Z0.000000
M63 P0

(End cutting path id: path3132)


(Start cutting path id: path3132)
(Change tool to Default tool)

M63 P0
g01 X5.933998 Y14.029895

M62 P0(Penetrate)
G01 X5.388626 Y14.029895 Z0.000000
M63 P0

(End cutting path id: path3132)


(Start cutting path id: path3132)
(Change tool to Default tool)

M63 P0
g01 X5.388626 Y14.082355

M62 P0(Penetrate)
G01 X5.933998 Y14.082355 Z0.000000
M63 P0

(End cutting path id: path3132)


(Start cutting path id: path3132)
(Change tool to Default tool)

M63 P0
g01 X7.599022 Y14.082355

M62 P0(Penetrate)
G01 X8.139186 Y14.082355 Z0.000000
M63 P0

(End cutting path id: path3132)


(Start cutting path id: path3132)
(Change tool to Default tool)

M63 P0
g01 X8.832033 Y14.082355

M62 P0(Penetrate)
G01 X9.377114 Y14.082355 Z0.000000
M63 P0

(End cutting path id: path3132)


(Start cutting path id: path3132)
(Change tool to Default tool)

M63 P0
g01 X9.377114 Y14.134815

M62 P0(Penetrate)
G01 X8.832033 Y14.134815 Z0.000000
M63 P0

(End cutting path id: path3132)


(Start cutting path id: path3132)
(Change tool to Default tool)

M63 P0
g01 X8.139186 Y14.134815

M62 P0(Penetrate)
G01 X7.599022 Y14.134815 Z0.000000
M63 P0

(End cutting path id: path3132)


(Start cutting path id: path3132)
(Change tool to Default tool)

M63 P0
g01 X5.933998 Y14.134815

M62 P0(Penetrate)
G01 X5.388626 Y14.134815 Z0.000000
M63 P0

(End cutting path id: path3132)


(Start cutting path id: path3132)
(Change tool to Default tool)

M63 P0
g01 X5.388626 Y14.187275

M62 P0(Penetrate)
G01 X5.933998 Y14.187275 Z0.000000
M63 P0

(End cutting path id: path3132)


(Start cutting path id: path3132)
(Change tool to Default tool)

M63 P0
g01 X7.599022 Y14.187275

M62 P0(Penetrate)
G01 X8.139186 Y14.187275 Z0.000000
M63 P0

(End cutting path id: path3132)


(Start cutting path id: path3132)
(Change tool to Default tool)

M63 P0
g01 X8.832033 Y14.187275

M62 P0(Penetrate)
G01 X9.377114 Y14.187275 Z0.000000
M63 P0

(End cutting path id: path3132)


(Start cutting path id: path3132)
(Change tool to Default tool)

M63 P0
g01 X9.377114 Y14.239735

M62 P0(Penetrate)
G01 X8.832033 Y14.239735 Z0.000000
M63 P0

(End cutting path id: path3132)


(Start cutting path id: path3132)
(Change tool to Default tool)

M63 P0
g01 X8.139186 Y14.239735

M62 P0(Penetrate)
G01 X7.599022 Y14.239735 Z0.000000
M63 P0

(End cutting path id: path3132)


(Start cutting path id: path3132)
(Change tool to Default tool)

M63 P0
g01 X5.933998 Y14.239735

M62 P0(Penetrate)
G01 X5.388626 Y14.239735 Z0.000000
M63 P0

(End cutting path id: path3132)


(Start cutting path id: path3132)
(Change tool to Default tool)

M63 P0
g01 X5.388626 Y14.292196

M62 P0(Penetrate)
G01 X5.933998 Y14.292196 Z0.000000
M63 P0

(End cutting path id: path3132)


(Start cutting path id: path3132)
(Change tool to Default tool)

M63 P0
g01 X7.599022 Y14.292196

M62 P0(Penetrate)
G01 X8.139186 Y14.292196 Z0.000000
M63 P0

(End cutting path id: path3132)


(Start cutting path id: path3132)
(Change tool to Default tool)

M63 P0
g01 X8.832033 Y14.292196

M62 P0(Penetrate)
G01 X9.377114 Y14.292196 Z0.000000
M63 P0

(End cutting path id: path3132)


(Start cutting path id: path3132)
(Change tool to Default tool)

M63 P0
g01 X9.377114 Y14.344656

M62 P0(Penetrate)
G01 X8.832033 Y14.344656 Z0.000000
M63 P0

(End cutting path id: path3132)


(Start cutting path id: path3132)
(Change tool to Default tool)

M63 P0
g01 X8.139186 Y14.344656

M62 P0(Penetrate)
G01 X7.599022 Y14.344656 Z0.000000
M63 P0

(End cutting path id: path3132)


(Start cutting path id: path3132)
(Change tool to Default tool)

M63 P0
g01 X5.933998 Y14.344656

M62 P0(Penetrate)
G01 X5.388626 Y14.344656 Z0.000000
M63 P0

(End cutting path id: path3132)


(Start cutting path id: path3132)
(Change tool to Default tool)

M63 P0
g01 X5.388626 Y14.397116

M62 P0(Penetrate)
G01 X5.933998 Y14.397116 Z0.000000
M63 P0

(End cutting path id: path3132)


(Start cutting path id: path3132)
(Change tool to Default tool)

M63 P0
g01 X7.599022 Y14.397116

M62 P0(Penetrate)
G01 X8.139186 Y14.397116 Z0.000000
M63 P0

(End cutting path id: path3132)


(Start cutting path id: path3132)
(Change tool to Default tool)

M63 P0
g01 X8.832033 Y14.397116

M62 P0(Penetrate)
G01 X9.377114 Y14.397116 Z0.000000
M63 P0

(End cutting path id: path3132)


(Start cutting path id: path3132)
(Change tool to Default tool)

M63 P0
g01 X9.377114 Y14.449576

M62 P0(Penetrate)
G01 X8.832033 Y14.449576 Z0.000000
M63 P0

(End cutting path id: path3132)


(Start cutting path id: path3132)
(Change tool to Default tool)

M63 P0
g01 X8.139186 Y14.449576

M62 P0(Penetrate)
G01 X7.599022 Y14.449576 Z0.000000
M63 P0

(End cutting path id: path3132)


(Start cutting path id: path3132)
(Change tool to Default tool)

M63 P0
g01 X5.933998 Y14.449576

M62 P0(Penetrate)
G01 X5.388626 Y14.449576 Z0.000000
M63 P0

(End cutting path id: path3132)


(Start cutting path id: path3132)
(Change tool to Default tool)

M63 P0
g01 X5.388626 Y14.502035

M62 P0(Penetrate)
G01 X5.933998 Y14.502035 Z0.000000
M63 P0

(End cutting path id: path3132)


(Start cutting path id: path3132)
(Change tool to Default tool)

M63 P0
g01 X5.933998 Y14.554495

M62 P0(Penetrate)
G01 X5.388626 Y14.554495 Z0.000000
M63 P0

(End cutting path id: path3132)


(Start cutting path id: path3132)
(Change tool to Default tool)

M63 P0
g01 X5.388626 Y14.606955

M62 P0(Penetrate)
G01 X5.933998 Y14.606955 Z0.000000
M63 P0

(End cutting path id: path3132)


(Start cutting path id: path3132)
(Change tool to Default tool)

M63 P0
g01 X5.933998 Y14.659415

M62 P0(Penetrate)
G01 X5.388626 Y14.659415 Z0.000000
M63 P0

(End cutting path id: path3132)


(Start cutting path id: path3132)
(Change tool to Default tool)

M63 P0
g01 X5.388626 Y14.711875

M62 P0(Penetrate)
G01 X5.933998 Y14.711875 Z0.000000
M63 P0

(End cutting path id: path3132)


(Start cutting path id: path3132)
(Change tool to Default tool)

M63 P0
g01 X5.933998 Y14.764335

M62 P0(Penetrate)
G01 X5.388626 Y14.764335 Z0.000000
M63 P0

(End cutting path id: path3132)


(Start cutting path id: path3132)
(Change tool to Default tool)

M63 P0
g01 X5.388626 Y14.816795

M62 P0(Penetrate)
G01 X5.933998 Y14.816795 Z0.000000
M63 P0

(End cutting path id: path3132)


(Start cutting path id: path3132)
(Change tool to Default tool)

M63 P0
g01 X5.933998 Y14.869254

M62 P0(Penetrate)
G01 X5.388626 Y14.869254 Z0.000000
M63 P0

(End cutting path id: path3132)


(Start cutting path id: path3132)
(Change tool to Default tool)

M63 P0
g01 X5.388626 Y14.921714

M62 P0(Penetrate)
G01 X5.933998 Y14.921714 Z0.000000
M63 P0

(End cutting path id: path3132)


(Start cutting path id: path3132)
(Change tool to Default tool)

M63 P0
g01 X5.933998 Y14.974174

M62 P0(Penetrate)
G01 X5.388626 Y14.974174 Z0.000000
M63 P0

(End cutting path id: path3132)


(Start cutting path id: path3132)
(Change tool to Default tool)

M63 P0
g01 X5.388626 Y15.026634

M62 P0(Penetrate)
G01 X5.933998 Y15.026634 Z0.000000
M63 P0

(End cutting path id: path3132)


(Start cutting path id: path3132)
(Change tool to Default tool)

M63 P0
g01 X5.933998 Y15.079095

M62 P0(Penetrate)
G01 X5.388626 Y15.079095 Z0.000000
M63 P0

(End cutting path id: path3132)


(Start cutting path id: path3132)
(Change tool to Default tool)

M63 P0
g01 X5.388626 Y15.131555

M62 P0(Penetrate)
G01 X5.933998 Y15.131555 Z0.000000
M63 P0

(End cutting path id: path3132)


(Start cutting path id: path3132)
(Change tool to Default tool)

M63 P0
g01 X5.933998 Y15.184015

M62 P0(Penetrate)
G01 X5.388626 Y15.184015 Z0.000000
M63 P0

(End cutting path id: path3132)


(Start cutting path id: path3132)
(Change tool to Default tool)

M63 P0
g01 X5.388626 Y15.236475

M62 P0(Penetrate)
G01 X5.933998 Y15.236475 Z0.000000
M63 P0

(End cutting path id: path3132)


(Start cutting path id: path3132)
(Change tool to Default tool)

M63 P0
g01 X5.933998 Y15.288935

M62 P0(Penetrate)
G01 X5.388626 Y15.288935 Z0.000000
M63 P0

(End cutting path id: path3132)


(Start cutting path id: path3132)
(Change tool to Default tool)

M63 P0
g01 X5.388626 Y15.341395

M62 P0(Penetrate)
G01 X5.933998 Y15.341395 Z0.000000
M63 P0

(End cutting path id: path3132)


(Start cutting path id: path3132)
(Change tool to Default tool)

M63 P0
g01 X5.933998 Y15.393855

M62 P0(Penetrate)
G01 X5.388626 Y15.393855 Z0.000000
M63 P0

(End cutting path id: path3132)


(Start cutting path id: path3132)
(Change tool to Default tool)

M63 P0
g01 X5.388626 Y15.446314

M62 P0(Penetrate)
G01 X5.933998 Y15.446314 Z0.000000
M63 P0

(End cutting path id: path3132)


(Start cutting path id: path3132)
(Change tool to Default tool)

M63 P0
g01 X5.933998 Y15.498774

M62 P0(Penetrate)
G01 X5.388626 Y15.498774 Z0.000000
M63 P0

(End cutting path id: path3132)


(Start cutting path id: path3132)
(Change tool to Default tool)

M63 P0
g01 X5.388626 Y15.551234

M62 P0(Penetrate)
G01 X5.933998 Y15.551234 Z0.000000
M63 P0

(End cutting path id: path3132)


(Start cutting path id: path3132)
(Change tool to Default tool)

M63 P0
g01 X5.933998 Y15.603694

M62 P0(Penetrate)
G01 X5.388626 Y15.603694 Z0.000000
M63 P0

(End cutting path id: path3132)


(Start cutting path id: path3132)
(Change tool to Default tool)

M63 P0
g01 X5.388626 Y15.656154

M62 P0(Penetrate)
G01 X5.933998 Y15.656154 Z0.000000
M63 P0

(End cutting path id: path3132)


(Start cutting path id: path3132)
(Change tool to Default tool)

M63 P0
g01 X5.933998 Y15.708614

M62 P0(Penetrate)
G01 X5.388626 Y15.708614 Z0.000000
M63 P0

(End cutting path id: path3132)


(Start cutting path id: path3132)
(Change tool to Default tool)

M63 P0
g01 X5.388626 Y15.761074

M62 P0(Penetrate)
G01 X5.933998 Y15.761074 Z0.000000
M63 P0

(End cutting path id: path3132)


(Start cutting path id: path3132)
(Change tool to Default tool)

M63 P0
g01 X5.933998 Y15.813535

M62 P0(Penetrate)
G01 X5.388626 Y15.813535 Z0.000000
M63 P0

(End cutting path id: path3132)


(Start cutting path id: path3132)
(Change tool to Default tool)

M63 P0
g01 X5.388626 Y15.865995

M62 P0(Penetrate)
G01 X5.933998 Y15.865995 Z0.000000
M63 P0

(End cutting path id: path3132)


(Start cutting path id: path3132)
(Change tool to Default tool)

M63 P0
g01 X5.934960 Y15.918455

M62 P0(Penetrate)
G01 X5.388630 Y15.918455 Z0.000000
M63 P0

(End cutting path id: path3132)


(Start cutting path id: path3132)
(Change tool to Default tool)

M63 P0
g01 X5.388630 Y15.970915

M62 P0(Penetrate)
G01 X6.009688 Y15.970915 Z0.000000
M63 P0

(End cutting path id: path3132)


(Start cutting path id: path3132)
(Change tool to Default tool)

M63 P0
g01 X6.084415 Y16.023375

M62 P0(Penetrate)
G01 X5.388630 Y16.023375 Z0.000000
M63 P0

(End cutting path id: path3132)


(Start cutting path id: path3132)
(Change tool to Default tool)

M63 P0
g01 X5.388630 Y16.075834

M62 P0(Penetrate)
G01 X6.159143 Y16.075834 Z0.000000
M63 P0

(End cutting path id: path3132)


(Start cutting path id: path3132)
(Change tool to Default tool)

M63 P0
g01 X6.233871 Y16.128294

M62 P0(Penetrate)
G01 X5.388630 Y16.128294 Z0.000000
M63 P0

(End cutting path id: path3132)


(Start cutting path id: path3132)
(Change tool to Default tool)

M63 P0
g01 X5.438448 Y16.180754

M62 P0(Penetrate)
G01 X6.308598 Y16.180754 Z0.000000
M63 P0

(End cutting path id: path3132)


(Start cutting path id: path3132)
(Change tool to Default tool)

M63 P0
g01 X6.383326 Y16.233214

M62 P0(Penetrate)
G01 X5.516099 Y16.233214 Z0.000000
M63 P0

(End cutting path id: path3132)


(Start cutting path id: path3132)
(Change tool to Default tool)

M63 P0
g01 X5.593758 Y16.285674

M62 P0(Penetrate)
G01 X6.458053 Y16.285674 Z0.000000
M63 P0

(End cutting path id: path3132)


(Start cutting path id: path3132)
(Change tool to Default tool)

M63 P0
g01 X6.532781 Y16.338134

M62 P0(Penetrate)
G01 X5.671428 Y16.338134 Z0.000000
M63 P0

(End cutting path id: path3132)


(Start cutting path id: path3132)
(Change tool to Default tool)

M63 P0
g01 X5.749108 Y16.390594

M62 P0(Penetrate)
G01 X6.607509 Y16.390594 Z0.000000
M63 P0

(End cutting path id: path3132)


(Start cutting path id: path3132)
(Change tool to Default tool)

M63 P0
g01 X6.682236 Y16.443053

M62 P0(Penetrate)
G01 X5.826800 Y16.443053 Z0.000000
M63 P0

(End cutting path id: path3132)


(Start cutting path id: path3132)
(Change tool to Default tool)

M63 P0
g01 X5.904505 Y16.495513

M62 P0(Penetrate)
G01 X6.756964 Y16.495513 Z0.000000
M63 P0

(End cutting path id: path3132)


(Start cutting path id: path3132)
(Change tool to Default tool)

M63 P0
g01 X6.831691 Y16.547975

M62 P0(Penetrate)
G01 X5.982225 Y16.547975 Z0.000000
M63 P0

(End cutting path id: path3132)


(Start cutting path id: path3132)
(Change tool to Default tool)

M63 P0
g01 X6.059964 Y16.600435

M62 P0(Penetrate)
G01 X6.906419 Y16.600435 Z0.000000
M63 P0

(End cutting path id: path3132)


(Start cutting path id: path3132)
(Change tool to Default tool)

M63 P0
g01 X6.981147 Y16.652894

M62 P0(Penetrate)
G01 X6.137724 Y16.652894 Z0.000000
M63 P0

(End cutting path id: path3132)


(Start cutting path id: path3132)
(Change tool to Default tool)

M63 P0
g01 X6.215512 Y16.705354

M62 P0(Penetrate)
G01 X7.055874 Y16.705354 Z0.000000
M63 P0

(End cutting path id: path3132)


(Start cutting path id: path3132)
(Change tool to Default tool)

M63 P0
g01 X7.130602 Y16.757814

M62 P0(Penetrate)
G01 X6.293335 Y16.757814 Z0.000000
M63 P0

(End cutting path id: path3132)


(Start cutting path id: path3132)
(Change tool to Default tool)

M63 P0
g01 X6.371210 Y16.810274

M62 P0(Penetrate)
G01 X7.205329 Y16.810274 Z0.000000
M63 P0

(End cutting path id: path3132)


(Start cutting path id: path3132)
(Change tool to Default tool)

M63 P0
g01 X7.280057 Y16.862734

M62 P0(Penetrate)
G01 X6.325555 Y16.862734 Z0.000000
M63 P0

(End cutting path id: path3132)


(Start cutting path id: path3132)
(Change tool to Default tool)

M63 P0
g01 X6.223936 Y16.915194

M62 P0(Penetrate)
G01 X7.354785 Y16.915194 Z0.000000
M63 P0

(End cutting path id: path3132)


(Start cutting path id: path3132)
(Change tool to Default tool)

M63 P0
g01 X7.284600 Y16.967654

M62 P0(Penetrate)
G01 X6.122347 Y16.967654 Z0.000000
M63 P0

(End cutting path id: path3132)


(Start cutting path id: path3132)
(Change tool to Default tool)

M63 P0
g01 X6.020776 Y17.020114

M62 P0(Penetrate)
G01 X7.182507 Y17.020114 Z0.000000
M63 P0

(End cutting path id: path3132)


(Start cutting path id: path3132)
(Change tool to Default tool)

M63 P0
g01 X7.080410 Y17.072573

M62 P0(Penetrate)
G01 X5.919211 Y17.072573 Z0.000000
M63 P0

(End cutting path id: path3132)


(Start cutting path id: path3132)
(Change tool to Default tool)

M63 P0
g01 X5.817664 Y17.125033

M62 P0(Penetrate)
G01 X6.978324 Y17.125033 Z0.000000
M63 P0

(End cutting path id: path3132)


(Start cutting path id: path3132)
(Change tool to Default tool)

M63 P0
g01 X6.876242 Y17.177493

M62 P0(Penetrate)
G01 X5.716124 Y17.177493 Z0.000000
M63 P0

(End cutting path id: path3132)


(Start cutting path id: path3132)
(Change tool to Default tool)

M63 P0
g01 X5.614591 Y17.229953

M62 P0(Penetrate)
G01 X6.774164 Y17.229953 Z0.000000
M63 P0

(End cutting path id: path3132)


(Start cutting path id: path3132)
(Change tool to Default tool)

M63 P0
g01 X6.672090 Y17.282414

M62 P0(Penetrate)
G01 X5.513064 Y17.282414 Z0.000000
M63 P0

(End cutting path id: path3132)


(Start cutting path id: path3132)
(Change tool to Default tool)

M63 P0
g01 X5.411541 Y17.334874

M62 P0(Penetrate)
G01 X6.570019 Y17.334874 Z0.000000
M63 P0

(End cutting path id: path3132)


(Start cutting path id: path3132)
(Change tool to Default tool)

M63 P0
g01 X6.467953 Y17.387334

M62 P0(Penetrate)
G01 X5.310023 Y17.387334 Z0.000000
M63 P0

(End cutting path id: path3132)


(Start cutting path id: path3132)
(Change tool to Default tool)

M63 P0
g01 X5.208509 Y17.439794

M62 P0(Penetrate)
G01 X6.365891 Y17.439794 Z0.000000
M63 P0

(End cutting path id: path3132)


(Start cutting path id: path3132)
(Change tool to Default tool)

M63 P0
g01 X6.263834 Y17.492254

M62 P0(Penetrate)
G01 X5.106997 Y17.492254 Z0.000000
M63 P0

(End cutting path id: path3132)


(Start cutting path id: path3132)
(Change tool to Default tool)

M63 P0
g01 X5.005489 Y17.544714

M62 P0(Penetrate)
G01 X6.161782 Y17.544714 Z0.000000
M63 P0

(End cutting path id: path3132)


(Start cutting path id: path3132)
(Change tool to Default tool)

M63 P0
g01 X6.059736 Y17.597174

M62 P0(Penetrate)
G01 X4.903984 Y17.597174 Z0.000000
M63 P0

(End cutting path id: path3132)


(Start cutting path id: path3132)
(Change tool to Default tool)

M63 P0
g01 X4.802481 Y17.649633

M62 P0(Penetrate)
G01 X5.957696 Y17.649633 Z0.000000
M63 P0

(End cutting path id: path3132)


(Start cutting path id: path3132)
(Change tool to Default tool)

M63 P0
g01 X5.855663 Y17.702093

M62 P0(Penetrate)
G01 X4.700980 Y17.702093 Z0.000000
M63 P0

(End cutting path id: path3132)


(Start cutting path id: path3132)
(Change tool to Default tool)

M63 P0
g01 X4.599482 Y17.754553

M62 P0(Penetrate)
G01 X5.753638 Y17.754553 Z0.000000
M63 P0

(End cutting path id: path3132)


(Start cutting path id: path3132)
(Change tool to Default tool)

M63 P0
g01 X5.651622 Y17.807013

M62 P0(Penetrate)
G01 X4.497986 Y17.807013 Z0.000000
M63 P0

(End cutting path id: path3132)


(Start cutting path id: path3132)
(Change tool to Default tool)

M63 P0
g01 X4.396492 Y17.859473

M62 P0(Penetrate)
G01 X5.549617 Y17.859473 Z0.000000
M63 P0

(End cutting path id: path3132)


(Start cutting path id: path3132)
(Change tool to Default tool)

M63 P0
g01 X5.447625 Y17.911933

M62 P0(Penetrate)
G01 X4.295000 Y17.911933 Z0.000000
M63 P0

(End cutting path id: path3132)


(Start cutting path id: path3132)
(Change tool to Default tool)

M63 P0
g01 X4.193510 Y17.964393

M62 P0(Penetrate)
G01 X5.345648 Y17.964393 Z0.000000
M63 P0

(End cutting path id: path3132)


(Start cutting path id: path3132)
(Change tool to Default tool)

M63 P0
g01 X5.243692 Y18.016854

M62 P0(Penetrate)
G01 X4.092022 Y18.016854 Z0.000000
M63 P0

(End cutting path id: path3132)


(Start cutting path id: path3132)
(Change tool to Default tool)

M63 P0
g01 X3.990536 Y18.069314

M62 P0(Penetrate)
G01 X5.141763 Y18.069314 Z0.000000
M63 P0

(End cutting path id: path3132)


(Start cutting path id: path3132)
(Change tool to Default tool)

M63 P0
g01 X5.039874 Y18.121774

M62 P0(Penetrate)
G01 X3.919832 Y18.121774 Z0.000000
M63 P0

(End cutting path id: path3132)


(Start cutting path id: path3132)
(Change tool to Default tool)

M63 P0
g01 X4.011864 Y18.174234

M62 P0(Penetrate)
G01 X4.944758 Y18.174234 Z0.000000
M63 P0

(End cutting path id: path3132)


(Start cutting path id: path3132)
(Change tool to Default tool)

M63 P0
g01 X5.036842 Y18.226693

M62 P0(Penetrate)
G01 X4.103898 Y18.226693 Z0.000000
M63 P0

(End cutting path id: path3132)


(Start cutting path id: path3132)
(Change tool to Default tool)

M63 P0
g01 X4.195934 Y18.279153

M62 P0(Penetrate)
G01 X5.128874 Y18.279153 Z0.000000
M63 P0

(End cutting path id: path3132)


(Start cutting path id: path3132)
(Change tool to Default tool)

M63 P0
g01 X5.220874 Y18.331613

M62 P0(Penetrate)
G01 X4.287971 Y18.331613 Z0.000000
M63 P0

(End cutting path id: path3132)


(Start cutting path id: path3132)
(Change tool to Default tool)

M63 P0
g01 X4.380009 Y18.384073

M62 P0(Penetrate)
G01 X5.312851 Y18.384073 Z0.000000
M63 P0

(End cutting path id: path3132)


(Start cutting path id: path3132)
(Change tool to Default tool)

M63 P0
g01 X5.404811 Y18.436533

M62 P0(Penetrate)
G01 X4.472049 Y18.436533 Z0.000000
M63 P0

(End cutting path id: path3132)


(Start cutting path id: path3132)
(Change tool to Default tool)

M63 P0
g01 X4.564090 Y18.488993

M62 P0(Penetrate)
G01 X5.496758 Y18.488993 Z0.000000
M63 P0

(End cutting path id: path3132)


(Start cutting path id: path3132)
(Change tool to Default tool)

M63 P0
g01 X5.588694 Y18.541453

M62 P0(Penetrate)
G01 X4.656132 Y18.541453 Z0.000000
M63 P0

(End cutting path id: path3132)


(Start cutting path id: path3132)
(Change tool to Default tool)

M63 P0
g01 X4.748177 Y18.593913

M62 P0(Penetrate)
G01 X5.680621 Y18.593913 Z0.000000
M63 P0

(End cutting path id: path3132)


(Start cutting path id: path3132)
(Change tool to Default tool)

M63 P0
g01 X5.772540 Y18.646372

M62 P0(Penetrate)
G01 X4.840222 Y18.646372 Z0.000000
M63 P0

(End cutting path id: path3132)


(Start cutting path id: path3132)
(Change tool to Default tool)

M63 P0
g01 X4.932270 Y18.698832

M62 P0(Penetrate)
G01 X5.864452 Y18.698832 Z0.000000
M63 P0

(End cutting path id: path3132)


(Start cutting path id: path3132)
(Change tool to Default tool)

M63 P0
g01 X5.956359 Y18.751294

M62 P0(Penetrate)
G01 X5.024319 Y18.751294 Z0.000000
M63 P0

(End cutting path id: path3132)


(Start cutting path id: path3132)
(Change tool to Default tool)

M63 P0
g01 X5.116371 Y18.803753

M62 P0(Penetrate)
G01 X6.048260 Y18.803753 Z0.000000
M63 P0

(End cutting path id: path3132)


(Start cutting path id: path3132)
(Change tool to Default tool)

M63 P0
g01 X6.140155 Y18.856213

M62 P0(Penetrate)
G01 X5.208425 Y18.856213 Z0.000000
M63 P0

(End cutting path id: path3132)


(Start cutting path id: path3132)
(Change tool to Default tool)

M63 P0
g01 X5.300481 Y18.908673

M62 P0(Penetrate)
G01 X6.232047 Y18.908673 Z0.000000
M63 P0

(End cutting path id: path3132)


(Start cutting path id: path3132)
(Change tool to Default tool)

M63 P0
g01 X6.323935 Y18.961133

M62 P0(Penetrate)
G01 X5.392540 Y18.961133 Z0.000000
M63 P0

(End cutting path id: path3132)


(Start cutting path id: path3132)
(Change tool to Default tool)

M63 P0
g01 X5.484602 Y19.013593

M62 P0(Penetrate)
G01 X6.415818 Y19.013593 Z0.000000
M63 P0

(End cutting path id: path3132)


(Start cutting path id: path3132)
(Change tool to Default tool)

M63 P0
g01 X6.507698 Y19.066053

M62 P0(Penetrate)
G01 X5.576668 Y19.066053 Z0.000000
M63 P0

(End cutting path id: path3132)


(Start cutting path id: path3132)
(Change tool to Default tool)

M63 P0
g01 X5.668738 Y19.118513

M62 P0(Penetrate)
G01 X6.599575 Y19.118513 Z0.000000
M63 P0

(End cutting path id: path3132)


(Start cutting path id: path3132)
(Change tool to Default tool)

M63 P0
g01 X6.691449 Y19.170973

M62 P0(Penetrate)
G01 X5.760814 Y19.170973 Z0.000000
M63 P0

(End cutting path id: path3132)


(Start cutting path id: path3132)
(Change tool to Default tool)

M63 P0
g01 X5.852895 Y19.223432

M62 P0(Penetrate)
G01 X6.783319 Y19.223432 Z0.000000
M63 P0

(End cutting path id: path3132)


(Start cutting path id: path3132)
(Change tool to Default tool)

M63 P0
g01 X6.875187 Y19.275892

M62 P0(Penetrate)
G01 X5.944985 Y19.275892 Z0.000000
M63 P0

(End cutting path id: path3132)


(Start cutting path id: path3132)
(Change tool to Default tool)

M63 P0
g01 X6.037086 Y19.328352

M62 P0(Penetrate)
G01 X6.967051 Y19.328352 Z0.000000
M63 P0

(End cutting path id: path3132)


(Start cutting path id: path3132)
(Change tool to Default tool)

M63 P0
g01 X7.058912 Y19.380812

M62 P0(Penetrate)
G01 X6.129202 Y19.380812 Z0.000000
M63 P0

(End cutting path id: path3132)


(Start cutting path id: path3132)
(Change tool to Default tool)

M63 P0
g01 X6.221344 Y19.433272

M62 P0(Penetrate)
G01 X7.150770 Y19.433272 Z0.000000
M63 P0

(End cutting path id: path3132)


(Start cutting path id: path3132)
(Change tool to Default tool)

M63 P0
g01 X7.218309 Y19.485732

M62 P0(Penetrate)
G01 X6.131907 Y19.485732 Z0.000000
M63 P0

(End cutting path id: path3132)


(Start cutting path id: path3132)
(Change tool to Default tool)

M63 P0
g01 X6.037524 Y19.538193

M62 P0(Penetrate)
G01 X7.124104 Y19.538193 Z0.000000
M63 P0

(End cutting path id: path3132)


(Start cutting path id: path3132)
(Change tool to Default tool)

M63 P0
g01 X7.029898 Y19.590653

M62 P0(Penetrate)
G01 X5.943080 Y19.590653 Z0.000000
M63 P0

(End cutting path id: path3132)


(Start cutting path id: path3132)
(Change tool to Default tool)

M63 P0
g01 X5.848592 Y19.643113

M62 P0(Penetrate)
G01 X6.935692 Y19.643113 Z0.000000
M63 P0

(End cutting path id: path3132)


(Start cutting path id: path3132)
(Change tool to Default tool)

M63 P0
g01 X6.841487 Y19.695573

M62 P0(Penetrate)
G01 X5.754072 Y19.695573 Z0.000000
M63 P0

(End cutting path id: path3132)


(Start cutting path id: path3132)
(Change tool to Default tool)

M63 P0
g01 X5.659526 Y19.748033

M62 P0(Penetrate)
G01 X6.747281 Y19.748033 Z0.000000
M63 P0

(End cutting path id: path3132)


(Start cutting path id: path3132)
(Change tool to Default tool)

M63 P0
g01 X6.653075 Y19.800492

M62 P0(Penetrate)
G01 X5.564959 Y19.800492 Z0.000000
M63 P0

(End cutting path id: path3132)


(Start cutting path id: path3132)
(Change tool to Default tool)

M63 P0
g01 X5.470375 Y19.852952

M62 P0(Penetrate)
G01 X6.558870 Y19.852952 Z0.000000
M63 P0

(End cutting path id: path3132)


(Start cutting path id: path3132)
(Change tool to Default tool)

M63 P0
g01 X6.464664 Y19.905412

M62 P0(Penetrate)
G01 X5.375776 Y19.905412 Z0.000000
M63 P0

(End cutting path id: path3132)


(Start cutting path id: path3132)
(Change tool to Default tool)

M63 P0
g01 X5.281163 Y19.957872

M62 P0(Penetrate)
G01 X6.370458 Y19.957872 Z0.000000
M63 P0

(End cutting path id: path3132)


(Start cutting path id: path3132)
(Change tool to Default tool)

M63 P0
g01 X6.276252 Y20.010332

M62 P0(Penetrate)
G01 X5.186539 Y20.010332 Z0.000000
M63 P0

(End cutting path id: path3132)


(Start cutting path id: path3132)
(Change tool to Default tool)

M63 P0
g01 X5.091905 Y20.062792

M62 P0(Penetrate)
G01 X6.182046 Y20.062792 Z0.000000
M63 P0

(End cutting path id: path3132)


(Start cutting path id: path3132)
(Change tool to Default tool)

M63 P0
g01 X6.087840 Y20.115252

M62 P0(Penetrate)
G01 X4.997262 Y20.115252 Z0.000000
M63 P0

(End cutting path id: path3132)


(Start cutting path id: path3132)
(Change tool to Default tool)

M63 P0
g01 X4.902610 Y20.167712

M62 P0(Penetrate)
G01 X5.993634 Y20.167712 Z0.000000
M63 P0

(End cutting path id: path3132)


(Start cutting path id: path3132)
(Change tool to Default tool)

M63 P0
g01 X5.899428 Y20.220171

M62 P0(Penetrate)
G01 X4.807949 Y20.220171 Z0.000000
M63 P0

(End cutting path id: path3132)


(Start cutting path id: path3132)
(Change tool to Default tool)

M63 P0
g01 X4.713282 Y20.272633

M62 P0(Penetrate)
G01 X5.805222 Y20.272633 Z0.000000
M63 P0

(End cutting path id: path3132)


(Start cutting path id: path3132)
(Change tool to Default tool)

M63 P0
g01 X5.711016 Y20.325093

M62 P0(Penetrate)
G01 X4.618607 Y20.325093 Z0.000000
M63 P0

(End cutting path id: path3132)


(Start cutting path id: path3132)
(Change tool to Default tool)

M63 P0
g01 X4.523926 Y20.377552

M62 P0(Penetrate)
G01 X5.616810 Y20.377552 Z0.000000
M63 P0

(End cutting path id: path3132)


(Start cutting path id: path3132)
(Change tool to Default tool)

M63 P0
g01 X5.522604 Y20.430012

M62 P0(Penetrate)
G01 X4.429238 Y20.430012 Z0.000000
M63 P0

(End cutting path id: path3132)


(Start cutting path id: path3132)
(Change tool to Default tool)

M63 P0
g01 X4.334543 Y20.482472

M62 P0(Penetrate)
G01 X5.428397 Y20.482472 Z0.000000
M63 P0

(End cutting path id: path3132)


(Start cutting path id: path3132)
(Change tool to Default tool)

M63 P0
g01 X5.334191 Y20.534932

M62 P0(Penetrate)
G01 X4.239842 Y20.534932 Z0.000000
M63 P0

(End cutting path id: path3132)


(Start cutting path id: path3132)
(Change tool to Default tool)

M63 P0
g01 X4.145133 Y20.587392

M62 P0(Penetrate)
G01 X5.239984 Y20.587392 Z0.000000
M63 P0

(End cutting path id: path3132)


(Start cutting path id: path3132)
(Change tool to Default tool)

M63 P0
g01 X5.145777 Y20.639852

M62 P0(Penetrate)
G01 X4.154908 Y20.639852 Z0.000000
M63 P0

(End cutting path id: path3132)


(Start cutting path id: path3132)
(Change tool to Default tool)

M63 P0
g01 X4.235897 Y20.692312

M62 P0(Penetrate)
G01 X5.084696 Y20.692312 Z0.000000
M63 P0

(End cutting path id: path3132)


(Start cutting path id: path3132)
(Change tool to Default tool)

M63 P0
g01 X5.165701 Y20.744772

M62 P0(Penetrate)
G01 X4.316887 Y20.744772 Z0.000000
M63 P0

(End cutting path id: path3132)


(Start cutting path id: path3132)
(Change tool to Default tool)

M63 P0
g01 X4.397875 Y20.797231

M62 P0(Penetrate)
G01 X5.246731 Y20.797231 Z0.000000
M63 P0

(End cutting path id: path3132)


(Start cutting path id: path3132)
(Change tool to Default tool)

M63 P0
g01 X5.327778 Y20.849691

M62 P0(Penetrate)
G01 X4.478864 Y20.849691 Z0.000000
M63 P0

(End cutting path id: path3132)


(Start cutting path id: path3132)
(Change tool to Default tool)

M63 P0
g01 X4.559852 Y20.902151

M62 P0(Penetrate)
G01 X5.408836 Y20.902151 Z0.000000
M63 P0

(End cutting path id: path3132)


(Start cutting path id: path3132)
(Change tool to Default tool)

M63 P0
g01 X5.489903 Y20.954611

M62 P0(Penetrate)
G01 X4.640840 Y20.954611 Z0.000000
M63 P0

(End cutting path id: path3132)


(Start cutting path id: path3132)
(Change tool to Default tool)

M63 P0
g01 X4.721828 Y21.007072

M62 P0(Penetrate)
G01 X5.570977 Y21.007072 Z0.000000
M63 P0

(End cutting path id: path3132)


(Start cutting path id: path3132)
(Change tool to Default tool)

M63 P0
g01 X5.652058 Y21.059532

M62 P0(Penetrate)
G01 X4.802816 Y21.059532 Z0.000000
M63 P0

(End cutting path id: path3132)


(Start cutting path id: path3132)
(Change tool to Default tool)

M63 P0
g01 X4.883803 Y21.111992

M62 P0(Penetrate)
G01 X5.733143 Y21.111992 Z0.000000
M63 P0

(End cutting path id: path3132)


(Start cutting path id: path3132)
(Change tool to Default tool)

M63 P0
g01 X5.814232 Y21.164452

M62 P0(Penetrate)
G01 X4.964791 Y21.164452 Z0.000000
M63 P0

(End cutting path id: path3132)


(Start cutting path id: path3132)
(Change tool to Default tool)

M63 P0
g01 X5.045778 Y21.216912

M62 P0(Penetrate)
G01 X5.895325 Y21.216912 Z0.000000
M63 P0

(End cutting path id: path3132)


(Start cutting path id: path3132)
(Change tool to Default tool)

M63 P0
g01 X5.976421 Y21.269372

M62 P0(Penetrate)
G01 X5.126764 Y21.269372 Z0.000000
M63 P0

(End cutting path id: path3132)


(Start cutting path id: path3132)
(Change tool to Default tool)

M63 P0
g01 X5.207750 Y21.321832

M62 P0(Penetrate)
G01 X6.057520 Y21.321832 Z0.000000
M63 P0

(End cutting path id: path3132)


(Start cutting path id: path3132)
(Change tool to Default tool)

M63 P0
g01 X6.138622 Y21.374291

M62 P0(Penetrate)
G01 X5.288736 Y21.374291 Z0.000000
M63 P0

(End cutting path id: path3132)


(Start cutting path id: path3132)
(Change tool to Default tool)

M63 P0
g01 X5.369722 Y21.426751

M62 P0(Penetrate)
G01 X6.219726 Y21.426751 Z0.000000
M63 P0

(End cutting path id: path3132)


(Start cutting path id: path3132)
(Change tool to Default tool)

M63 P0
g01 X6.300832 Y21.479211

M62 P0(Penetrate)
G01 X5.450707 Y21.479211 Z0.000000
M63 P0

(End cutting path id: path3132)


(Start cutting path id: path3132)
(Change tool to Default tool)

M63 P0
g01 X5.531691 Y21.531671

M62 P0(Penetrate)
G01 X6.381941 Y21.531671 Z0.000000
M63 P0

(End cutting path id: path3132)


(Start cutting path id: path3132)
(Change tool to Default tool)

M63 P0
g01 X6.463052 Y21.584131

M62 P0(Penetrate)
G01 X5.612675 Y21.584131 Z0.000000
M63 P0

(End cutting path id: path3132)


(Start cutting path id: path3132)
(Change tool to Default tool)

M63 P0
g01 X5.693658 Y21.636591

M62 P0(Penetrate)
G01 X6.544164 Y21.636591 Z0.000000
M63 P0

(End cutting path id: path3132)


(Start cutting path id: path3132)
(Change tool to Default tool)

M63 P0
g01 X6.625279 Y21.689051

M62 P0(Penetrate)
G01 X5.774640 Y21.689051 Z0.000000
M63 P0

(End cutting path id: path3132)


(Start cutting path id: path3132)
(Change tool to Default tool)

M63 P0
g01 X5.855621 Y21.741512

M62 P0(Penetrate)
G01 X6.706395 Y21.741512 Z0.000000
M63 P0

(End cutting path id: path3132)


(Start cutting path id: path3132)
(Change tool to Default tool)

M63 P0
g01 X6.787513 Y21.793972

M62 P0(Penetrate)
G01 X5.936600 Y21.793972 Z0.000000
M63 P0

(End cutting path id: path3132)


(Start cutting path id: path3132)
(Change tool to Default tool)

M63 P0
g01 X6.017576 Y21.846432

M62 P0(Penetrate)
G01 X6.868633 Y21.846432 Z0.000000
M63 P0

(End cutting path id: path3132)


(Start cutting path id: path3132)
(Change tool to Default tool)

M63 P0
g01 X6.949755 Y21.898892

M62 P0(Penetrate)
G01 X6.074332 Y21.898892 Z0.000000
M63 P0

(End cutting path id: path3132)


(Start cutting path id: path3132)
(Change tool to Default tool)

M63 P0
g01 X5.997771 Y21.951352

M62 P0(Penetrate)
G01 X6.922962 Y21.951352 Z0.000000
M63 P0

(End cutting path id: path3132)


(Start cutting path id: path3132)
(Change tool to Default tool)

M63 P0
g01 X6.846607 Y22.003811

M62 P0(Penetrate)
G01 X5.921118 Y22.003811 Z0.000000
M63 P0

(End cutting path id: path3132)


(Start cutting path id: path3132)
(Change tool to Default tool)

M63 P0
g01 X5.844408 Y22.056271

M62 P0(Penetrate)
G01 X6.770252 Y22.056271 Z0.000000
M63 P0

(End cutting path id: path3132)


(Start cutting path id: path3132)
(Change tool to Default tool)

M63 P0
g01 X6.693895 Y22.108731

M62 P0(Penetrate)
G01 X5.767657 Y22.108731 Z0.000000
M63 P0

(End cutting path id: path3132)


(Start cutting path id: path3132)
(Change tool to Default tool)

M63 P0
g01 X5.690876 Y22.161191

M62 P0(Penetrate)
G01 X6.617538 Y22.161191 Z0.000000
M63 P0

(End cutting path id: path3132)


(Start cutting path id: path3132)
(Change tool to Default tool)

M63 P0
g01 X6.541179 Y22.213651

M62 P0(Penetrate)
G01 X5.614070 Y22.213651 Z0.000000
M63 P0

(End cutting path id: path3132)


(Start cutting path id: path3132)
(Change tool to Default tool)

M63 P0
g01 X5.537245 Y22.266111

M62 P0(Penetrate)
G01 X6.464819 Y22.266111 Z0.000000
M63 P0

(End cutting path id: path3132)


(Start cutting path id: path3132)
(Change tool to Default tool)

M63 P0
g01 X6.388458 Y22.318571

M62 P0(Penetrate)
G01 X5.460404 Y22.318571 Z0.000000
M63 P0

(End cutting path id: path3132)


(Start cutting path id: path3132)
(Change tool to Default tool)

M63 P0
g01 X5.383548 Y22.371030

M62 P0(Penetrate)
G01 X6.312096 Y22.371030 Z0.000000
M63 P0

(End cutting path id: path3132)


(Start cutting path id: path3132)
(Change tool to Default tool)

M63 P0
g01 X6.235733 Y22.423490

M62 P0(Penetrate)
G01 X5.306679 Y22.423490 Z0.000000
M63 P0

(End cutting path id: path3132)


(Start cutting path id: path3132)
(Change tool to Default tool)

M63 P0
g01 X5.229800 Y22.475952

M62 P0(Penetrate)
G01 X6.159368 Y22.475952 Z0.000000
M63 P0

(End cutting path id: path3132)


(Start cutting path id: path3132)
(Change tool to Default tool)

M63 P0
g01 X6.083002 Y22.528412

M62 P0(Penetrate)
G01 X5.152911 Y22.528412 Z0.000000
M63 P0

(End cutting path id: path3132)


(Start cutting path id: path3132)
(Change tool to Default tool)

M63 P0
g01 X5.076013 Y22.580871

M62 P0(Penetrate)
G01 X6.006634 Y22.580871 Z0.000000
M63 P0

(End cutting path id: path3132)


(Start cutting path id: path3132)
(Change tool to Default tool)

M63 P0
g01 X5.930265 Y22.633331

M62 P0(Penetrate)
G01 X4.999107 Y22.633331 Z0.000000
M63 P0

(End cutting path id: path3132)


(Start cutting path id: path3132)
(Change tool to Default tool)

M63 P0
g01 X4.922193 Y22.685791

M62 P0(Penetrate)
G01 X5.853893 Y22.685791 Z0.000000
M63 P0

(End cutting path id: path3132)


(Start cutting path id: path3132)
(Change tool to Default tool)

M63 P0
g01 X5.777519 Y22.738251

M62 P0(Penetrate)
G01 X4.845271 Y22.738251 Z0.000000
M63 P0

(End cutting path id: path3132)


(Start cutting path id: path3132)
(Change tool to Default tool)

M63 P0
g01 X4.768344 Y22.790711

M62 P0(Penetrate)
G01 X5.701142 Y22.790711 Z0.000000
M63 P0

(End cutting path id: path3132)


(Start cutting path id: path3132)
(Change tool to Default tool)

M63 P0
g01 X5.624762 Y22.843171

M62 P0(Penetrate)
G01 X4.691409 Y22.843171 Z0.000000
M63 P0

(End cutting path id: path3132)


(Start cutting path id: path3132)
(Change tool to Default tool)

M63 P0
g01 X4.614468 Y22.895631

M62 P0(Penetrate)
G01 X5.548378 Y22.895631 Z0.000000
M63 P0

(End cutting path id: path3132)


(Start cutting path id: path3132)
(Change tool to Default tool)

M63 P0
g01 X5.471989 Y22.948090

M62 P0(Penetrate)
G01 X4.537521 Y22.948090 Z0.000000
M63 P0

(End cutting path id: path3132)


(Start cutting path id: path3132)
(Change tool to Default tool)

M63 P0
g01 X4.460568 Y23.000550

M62 P0(Penetrate)
G01 X5.395594 Y23.000550 Z0.000000
M63 P0

(End cutting path id: path3132)


(Start cutting path id: path3132)
(Change tool to Default tool)

M63 P0
g01 X5.319189 Y23.053010

M62 P0(Penetrate)
G01 X4.383607 Y23.053010 Z0.000000
M63 P0

(End cutting path id: path3132)


(Start cutting path id: path3132)
(Change tool to Default tool)

M63 P0
g01 X4.393757 Y23.105470

M62 P0(Penetrate)
G01 X5.242770 Y23.105470 Z0.000000
M63 P0

(End cutting path id: path3132)


(Start cutting path id: path3132)
(Change tool to Default tool)

M63 P0
g01 X5.234762 Y23.157930

M62 P0(Penetrate)
G01 X4.463808 Y23.157930 Z0.000000
M63 P0

(End cutting path id: path3132)


(Start cutting path id: path3132)
(Change tool to Default tool)

M63 P0
g01 X4.533859 Y23.210391

M62 P0(Penetrate)
G01 X5.304575 Y23.210391 Z0.000000
M63 P0

(End cutting path id: path3132)


(Start cutting path id: path3132)
(Change tool to Default tool)

M63 P0
g01 X5.374438 Y23.262851

M62 P0(Penetrate)
G01 X4.603909 Y23.262851 Z0.000000
M63 P0

(End cutting path id: path3132)


(Start cutting path id: path3132)
(Change tool to Default tool)

M63 P0
g01 X4.673960 Y23.315311

M62 P0(Penetrate)
G01 X5.444335 Y23.315311 Z0.000000
M63 P0

(End cutting path id: path3132)


(Start cutting path id: path3132)
(Change tool to Default tool)

M63 P0
g01 X5.514258 Y23.367771

M62 P0(Penetrate)
G01 X4.744011 Y23.367771 Z0.000000
M63 P0

(End cutting path id: path3132)


(Start cutting path id: path3132)
(Change tool to Default tool)

M63 P0
g01 X4.814062 Y23.420231

M62 P0(Penetrate)
G01 X5.584201 Y23.420231 Z0.000000
M63 P0

(End cutting path id: path3132)


(Start cutting path id: path3132)
(Change tool to Default tool)

M63 P0
g01 X5.654160 Y23.472691

M62 P0(Penetrate)
G01 X4.884113 Y23.472691 Z0.000000
M63 P0

(End cutting path id: path3132)


(Start cutting path id: path3132)
(Change tool to Default tool)

M63 P0
g01 X4.954164 Y23.525151

M62 P0(Penetrate)
G01 X5.724133 Y23.525151 Z0.000000
M63 P0

(End cutting path id: path3132)


(Start cutting path id: path3132)
(Change tool to Default tool)

M63 P0
g01 X5.794120 Y23.577610

M62 P0(Penetrate)
G01 X5.024214 Y23.577610 Z0.000000
M63 P0

(End cutting path id: path3132)


(Start cutting path id: path3132)
(Change tool to Default tool)

M63 P0
g01 X5.094265 Y23.630070

M62 P0(Penetrate)
G01 X5.864119 Y23.630070 Z0.000000
M63 P0

(End cutting path id: path3132)


(Start cutting path id: path3132)
(Change tool to Default tool)

M63 P0
g01 X5.929094 Y23.682530

M62 P0(Penetrate)
G01 X5.164316 Y23.682530 Z0.000000
M63 P0

(End cutting path id: path3132)


(Start cutting path id: path3132)
(Change tool to Default tool)

M63 P0
g01 X5.234367 Y23.734990

M62 P0(Penetrate)
G01 X5.929314 Y23.734990 Z0.000000
M63 P0

(End cutting path id: path3132)


(Start cutting path id: path3132)
(Change tool to Default tool)

M63 P0
g01 X5.929536 Y23.787450

M62 P0(Penetrate)
G01 X5.304425 Y23.787450 Z0.000000
M63 P0

(End cutting path id: path3132)


(Start cutting path id: path3132)
(Change tool to Default tool)

M63 P0
g01 X5.374476 Y23.839910

M62 P0(Penetrate)
G01 X5.929746 Y23.839910 Z0.000000
M63 P0

(End cutting path id: path3132)


(Start cutting path id: path3132)
(Change tool to Default tool)

M63 P0
g01 X5.929953 Y23.892370

M62 P0(Penetrate)
G01 X5.388632 Y23.892370 Z0.000000
M63 P0

(End cutting path id: path3132)


(Start cutting path id: path3132)
(Change tool to Default tool)

M63 P0
g01 X5.388632 Y23.944831

M62 P0(Penetrate)
G01 X5.930153 Y23.944831 Z0.000000
M63 P0

(End cutting path id: path3132)


(Start cutting path id: path3132)
(Change tool to Default tool)

M63 P0
g01 X5.930346 Y23.997291

M62 P0(Penetrate)
G01 X5.388629 Y23.997291 Z0.000000
M63 P0

(End cutting path id: path3132)


(Start cutting path id: path3132)
(Change tool to Default tool)

M63 P0
g01 X5.388629 Y24.049751

M62 P0(Penetrate)
G01 X5.930537 Y24.049751 Z0.000000
M63 P0

(End cutting path id: path3132)


(Start cutting path id: path3132)
(Change tool to Default tool)

M63 P0
g01 X5.930729 Y24.102211

M62 P0(Penetrate)
G01 X5.388636 Y24.102211 Z0.000000
M63 P0

(End cutting path id: path3132)


(Start cutting path id: path3132)
(Change tool to Default tool)

M63 P0
g01 X5.388636 Y24.154670

M62 P0(Penetrate)
G01 X5.930911 Y24.154670 Z0.000000
M63 P0

(End cutting path id: path3132)


(Start cutting path id: path3132)
(Change tool to Default tool)

M63 P0
g01 X5.931089 Y24.207130

M62 P0(Penetrate)
G01 X5.388636 Y24.207130 Z0.000000
M63 P0

(End cutting path id: path3132)


(Start cutting path id: path3132)
(Change tool to Default tool)

M63 P0
g01 X5.388636 Y24.259590

M62 P0(Penetrate)
G01 X5.931261 Y24.259590 Z0.000000
M63 P0

(End cutting path id: path3132)


(Start cutting path id: path3132)
(Change tool to Default tool)

M63 P0
g01 X5.931424 Y24.312050

M62 P0(Penetrate)
G01 X5.388631 Y24.312050 Z0.000000
M63 P0

(End cutting path id: path3132)


(Start cutting path id: path3132)
(Change tool to Default tool)

M63 P0
g01 X5.388631 Y24.364510

M62 P0(Penetrate)
G01 X5.931588 Y24.364510 Z0.000000
M63 P0

(End cutting path id: path3132)


(Start cutting path id: path3132)
(Change tool to Default tool)

M63 P0
g01 X5.931750 Y24.416970

M62 P0(Penetrate)
G01 X5.388635 Y24.416970 Z0.000000
M63 P0

(End cutting path id: path3132)


(Start cutting path id: path3132)
(Change tool to Default tool)

M63 P0
g01 X5.388635 Y24.469430

M62 P0(Penetrate)
G01 X5.931906 Y24.469430 Z0.000000
M63 P0

(End cutting path id: path3132)


(Start cutting path id: path3132)
(Change tool to Default tool)

M63 P0
g01 X5.932054 Y24.521889

M62 P0(Penetrate)
G01 X5.388632 Y24.521889 Z0.000000
M63 P0

(End cutting path id: path3132)


(Start cutting path id: path3132)
(Change tool to Default tool)

M63 P0
g01 X5.388632 Y24.574349

M62 P0(Penetrate)
G01 X5.932200 Y24.574349 Z0.000000
M63 P0

(End cutting path id: path3132)


(Start cutting path id: path3132)
(Change tool to Default tool)

M63 P0
g01 X5.932343 Y24.626809

M62 P0(Penetrate)
G01 X5.388632 Y24.626809 Z0.000000
M63 P0

(End cutting path id: path3132)


(Start cutting path id: path3132)
(Change tool to Default tool)

M63 P0
g01 X5.388632 Y24.679269

M62 P0(Penetrate)
G01 X5.932481 Y24.679269 Z0.000000
M63 P0

(End cutting path id: path3132)


(Start cutting path id: path3132)
(Change tool to Default tool)

M63 P0
g01 X5.932616 Y24.731730

M62 P0(Penetrate)
G01 X5.388632 Y24.731730 Z0.000000
M63 P0

(End cutting path id: path3132)


(Start cutting path id: path3132)
(Change tool to Default tool)

M63 P0
g01 X5.388632 Y24.784190

M62 P0(Penetrate)
G01 X5.932746 Y24.784190 Z0.000000
M63 P0

(End cutting path id: path3132)


(Start cutting path id: path3132)
(Change tool to Default tool)

M63 P0
g01 X5.932872 Y24.836650

M62 P0(Penetrate)
G01 X5.388632 Y24.836650 Z0.000000
M63 P0

(End cutting path id: path3132)


(Start cutting path id: path3132)
(Change tool to Default tool)

M63 P0
g01 X5.388632 Y24.889110

M62 P0(Penetrate)
G01 X5.932995 Y24.889110 Z0.000000
M63 P0

(End cutting path id: path3132)


(Start cutting path id: path3132)
(Change tool to Default tool)

M63 P0
g01 X5.933114 Y24.941570

M62 P0(Penetrate)
G01 X5.388632 Y24.941570 Z0.000000
M63 P0

(End cutting path id: path3132)


(Start cutting path id: path3132)
(Change tool to Default tool)

M63 P0
g01 X5.388632 Y24.994030

M62 P0(Penetrate)
G01 X5.933229 Y24.994030 Z0.000000
M63 P0

(End cutting path id: path3132)


(Start cutting path id: path3132)
(Change tool to Default tool)

M63 P0
g01 X5.933340 Y25.046490

M62 P0(Penetrate)
G01 X5.388632 Y25.046490 Z0.000000
M63 P0

(End cutting path id: path3132)


(Start cutting path id: path3132)
(Change tool to Default tool)

M63 P0
g01 X5.388632 Y25.098950

M62 P0(Penetrate)
G01 X5.933448 Y25.098950 Z0.000000
M63 P0

(End cutting path id: path3132)


(Start cutting path id: path3132)
(Change tool to Default tool)

M63 P0
g01 X5.933552 Y25.151409

M62 P0(Penetrate)
G01 X5.388632 Y25.151409 Z0.000000
M63 P0

(End cutting path id: path3132)


(Start cutting path id: path3132)
(Change tool to Default tool)

M63 P0
g01 X5.388632 Y25.203869

M62 P0(Penetrate)
G01 X5.933653 Y25.203869 Z0.000000
M63 P0

(End cutting path id: path3132)


(Start cutting path id: path3132)
(Change tool to Default tool)

M63 P0
g01 X5.933750 Y25.256329

M62 P0(Penetrate)
G01 X5.388632 Y25.256329 Z0.000000
M63 P0

(End cutting path id: path3132)


(Start cutting path id: path3132)
(Change tool to Default tool)

M63 P0
g01 X5.388632 Y25.308789

M62 P0(Penetrate)
G01 X5.933843 Y25.308789 Z0.000000
M63 P0

(End cutting path id: path3132)


(Start cutting path id: path3132)
(Change tool to Default tool)

M63 P0
g01 X5.933933 Y25.361249

M62 P0(Penetrate)
G01 X5.388632 Y25.361249 Z0.000000
M63 P0

(End cutting path id: path3132)


(Start cutting path id: path3132)
(Change tool to Default tool)

M63 P0
g01 X5.388632 Y25.413709

M62 P0(Penetrate)
G01 X5.934020 Y25.413709 Z0.000000
M63 P0

(End cutting path id: path3132)


(Start cutting path id: path3132)
(Change tool to Default tool)

M63 P0
g01 X5.934103 Y25.466170

M62 P0(Penetrate)
G01 X5.388632 Y25.466170 Z0.000000
M63 P0

(End cutting path id: path3132)


(Start cutting path id: path3132)
(Change tool to Default tool)

M63 P0
g01 X5.388632 Y25.518630

M62 P0(Penetrate)
G01 X5.934183 Y25.518630 Z0.000000
M63 P0

(End cutting path id: path3132)


(Start cutting path id: path3132)
(Change tool to Default tool)

M63 P0
g01 X5.934260 Y25.571090

M62 P0(Penetrate)
G01 X5.388632 Y25.571090 Z0.000000
M63 P0

(End cutting path id: path3132)


(Start cutting path id: path3132)
(Change tool to Default tool)

M63 P0
g01 X5.388632 Y25.623550

M62 P0(Penetrate)
G01 X5.934334 Y25.623550 Z0.000000
M63 P0

(End cutting path id: path3132)


(Start cutting path id: path3132)
(Change tool to Default tool)

M63 P0
g01 X5.934405 Y25.676010

M62 P0(Penetrate)
G01 X5.388632 Y25.676010 Z0.000000
M63 P0

(End cutting path id: path3132)


(Start cutting path id: path3132)
(Change tool to Default tool)

M63 P0
g01 X5.388632 Y25.728469

M62 P0(Penetrate)
G01 X5.934473 Y25.728469 Z0.000000
M63 P0

(End cutting path id: path3132)


(Start cutting path id: path3132)
(Change tool to Default tool)

M63 P0
g01 X5.934537 Y25.780929

M62 P0(Penetrate)
G01 X5.388632 Y25.780929 Z0.000000
M63 P0

(End cutting path id: path3132)


(Start cutting path id: path3132)
(Change tool to Default tool)

M63 P0
g01 X5.388632 Y25.833389

M62 P0(Penetrate)
G01 X5.934599 Y25.833389 Z0.000000
M63 P0

(End cutting path id: path3132)


(Start cutting path id: path3132)
(Change tool to Default tool)

M63 P0
g01 X5.934658 Y25.885849

M62 P0(Penetrate)
G01 X5.388632 Y25.885849 Z0.000000
M63 P0

(End cutting path id: path3132)


(Start cutting path id: path3132)
(Change tool to Default tool)

M63 P0
g01 X5.388632 Y25.938309

M62 P0(Penetrate)
G01 X5.934713 Y25.938309 Z0.000000
M63 P0

(End cutting path id: path3132)


(Start cutting path id: path3132)
(Change tool to Default tool)

M63 P0
g01 X5.934766 Y25.990769

M62 P0(Penetrate)
G01 X5.388632 Y25.990769 Z0.000000
M63 P0

(End cutting path id: path3132)


(Start cutting path id: path3132)
(Change tool to Default tool)

M63 P0
g01 X5.388632 Y26.043229

M62 P0(Penetrate)
G01 X5.934817 Y26.043229 Z0.000000
M63 P0

(End cutting path id: path3132)


(Start cutting path id: path3132)
(Change tool to Default tool)

M63 P0
g01 X5.934864 Y26.095689

M62 P0(Penetrate)
G01 X5.388632 Y26.095689 Z0.000000
M63 P0

(End cutting path id: path3132)


(Start cutting path id: path3132)
(Change tool to Default tool)

M63 P0
g01 X5.388632 Y26.148148

M62 P0(Penetrate)
G01 X5.934909 Y26.148148 Z0.000000
M63 P0

(End cutting path id: path3132)


(Start cutting path id: path3132)
(Change tool to Default tool)

M63 P0
g01 X5.934952 Y26.200610

M62 P0(Penetrate)
G01 X5.388632 Y26.200610 Z0.000000
M63 P0

(End cutting path id: path3132)


(Start cutting path id: path3132)
(Change tool to Default tool)

M63 P0
g01 X5.388632 Y26.253070

M62 P0(Penetrate)
G01 X5.934991 Y26.253070 Z0.000000
M63 P0

(End cutting path id: path3132)


(Start cutting path id: path3132)
(Change tool to Default tool)

M63 P0
g01 X5.935029 Y26.305529

M62 P0(Penetrate)
G01 X5.388632 Y26.305529 Z0.000000
M63 P0

(End cutting path id: path3132)


(Start cutting path id: path3132)
(Change tool to Default tool)

M63 P0
g01 X5.388632 Y26.357989

M62 P0(Penetrate)
G01 X5.935063 Y26.357989 Z0.000000
M63 P0

(End cutting path id: path3132)


(Start cutting path id: path3132)
(Change tool to Default tool)

M63 P0
g01 X5.935095 Y26.410449

M62 P0(Penetrate)
G01 X5.388632 Y26.410449 Z0.000000
M63 P0

(End cutting path id: path3132)


(Start cutting path id: path3132)
(Change tool to Default tool)

M63 P0
g01 X5.388632 Y26.462909

M62 P0(Penetrate)
G01 X5.935125 Y26.462909 Z0.000000
M63 P0

(End cutting path id: path3132)


(Start cutting path id: path3132)
(Change tool to Default tool)

M63 P0
g01 X5.935153 Y26.515369

M62 P0(Penetrate)
G01 X5.388632 Y26.515369 Z0.000000
M63 P0

(End cutting path id: path3132)


(Start cutting path id: path3132)
(Change tool to Default tool)

M63 P0
g01 X5.388632 Y26.567829

M62 P0(Penetrate)
G01 X5.935178 Y26.567829 Z0.000000
M63 P0

(End cutting path id: path3132)


(Start cutting path id: path3132)
(Change tool to Default tool)

M63 P0
g01 X5.935201 Y26.620289

M62 P0(Penetrate)
G01 X5.388632 Y26.620289 Z0.000000
M63 P0

(End cutting path id: path3132)


(Start cutting path id: path3132)
(Change tool to Default tool)

M63 P0
g01 X5.388632 Y26.672749

M62 P0(Penetrate)
G01 X5.935222 Y26.672749 Z0.000000
M63 P0

(End cutting path id: path3132)


(Start cutting path id: path3132)
(Change tool to Default tool)

M63 P0
g01 X5.935241 Y26.725208

M62 P0(Penetrate)
G01 X5.388632 Y26.725208 Z0.000000
M63 P0

(End cutting path id: path3132)


(Start cutting path id: path3132)
(Change tool to Default tool)

M63 P0
g01 X5.388632 Y26.777668

M62 P0(Penetrate)
G01 X5.935258 Y26.777668 Z0.000000
M63 P0

(End cutting path id: path3132)


(Start cutting path id: path3132)
(Change tool to Default tool)

M63 P0
g01 X5.935272 Y26.830128

M62 P0(Penetrate)
G01 X5.388632 Y26.830128 Z0.000000
M63 P0

(End cutting path id: path3132)


(Start cutting path id: path3132)
(Change tool to Default tool)

M63 P0
g01 X5.388632 Y26.882588

M62 P0(Penetrate)
G01 X5.935285 Y26.882588 Z0.000000
M63 P0

(End cutting path id: path3132)


(Start cutting path id: path3132)
(Change tool to Default tool)

M63 P0
g01 X5.935296 Y26.935049

M62 P0(Penetrate)
G01 X5.388632 Y26.935049 Z0.000000
M63 P0

(End cutting path id: path3132)


(Start cutting path id: path3132)
(Change tool to Default tool)

M63 P0
g01 X5.388632 Y26.987509

M62 P0(Penetrate)
G01 X5.935305 Y26.987509 Z0.000000
M63 P0

(End cutting path id: path3132)


(Start cutting path id: path3132)
(Change tool to Default tool)

M63 P0
g01 X5.935312 Y27.039969

M62 P0(Penetrate)
G01 X5.388632 Y27.039969 Z0.000000
M63 P0

(End cutting path id: path3132)


(Start cutting path id: path3132)
(Change tool to Default tool)

M63 P0
g01 X5.388632 Y27.092429

M62 P0(Penetrate)
G01 X5.935317 Y27.092429 Z0.000000
M63 P0

(End cutting path id: path3132)


(Start cutting path id: path3132)
(Change tool to Default tool)

M63 P0
g01 X5.935320 Y27.144889

M62 P0(Penetrate)
G01 X5.388632 Y27.144889 Z0.000000
M63 P0

(End cutting path id: path3132)


(Start cutting path id: path3132)
(Change tool to Default tool)

M63 P0
g01 X5.388632 Y27.197349

M62 P0(Penetrate)
G01 X5.935322 Y27.197349 Z0.000000
M63 P0

(End cutting path id: path3132)


(Start cutting path id: path3132)
(Change tool to Default tool)

M63 P0
g01 X5.935322 Y27.249809

M62 P0(Penetrate)
G01 X5.388632 Y27.249809 Z0.000000
M63 P0

(End cutting path id: path3132)


(Start cutting path id: path3132)
(Change tool to Default tool)

M63 P0
g01 X5.388632 Y27.302268

M62 P0(Penetrate)
G01 X5.935320 Y27.302268 Z0.000000
M63 P0

(End cutting path id: path3132)


(Start cutting path id: path3132)
(Change tool to Default tool)

M63 P0
g01 X5.935317 Y27.354728

M62 P0(Penetrate)
G01 X5.388632 Y27.354728 Z0.000000
M63 P0

(End cutting path id: path3132)


(Start cutting path id: path3132)
(Change tool to Default tool)

M63 P0
g01 X5.388632 Y27.407188

M62 P0(Penetrate)
G01 X5.935313 Y27.407188 Z0.000000
M63 P0

(End cutting path id: path3132)


(Start cutting path id: path3132)
(Change tool to Default tool)

M63 P0
g01 X5.935306 Y27.459648

M62 P0(Penetrate)
G01 X5.388632 Y27.459648 Z0.000000
M63 P0

(End cutting path id: path3132)


(Start cutting path id: path3132)
(Change tool to Default tool)

M63 P0
g01 X5.388632 Y27.512108

M62 P0(Penetrate)
G01 X5.935299 Y27.512108 Z0.000000
M63 P0

(End cutting path id: path3132)


(Start cutting path id: path3132)
(Change tool to Default tool)

M63 P0
g01 X5.935290 Y27.564568

M62 P0(Penetrate)
G01 X5.388632 Y27.564568 Z0.000000
M63 P0

(End cutting path id: path3132)


(Start cutting path id: path3132)
(Change tool to Default tool)

M63 P0
g01 X5.388632 Y27.617028

M62 P0(Penetrate)
G01 X5.935280 Y27.617028 Z0.000000
M63 P0

(End cutting path id: path3132)


(Start cutting path id: path3132)
(Change tool to Default tool)

M63 P0
g01 X5.935268 Y27.669489

M62 P0(Penetrate)
G01 X5.388632 Y27.669489 Z0.000000
M63 P0

(End cutting path id: path3132)


(Start cutting path id: path3132)
(Change tool to Default tool)

M63 P0
g01 X5.388632 Y27.721949

M62 P0(Penetrate)
G01 X5.935256 Y27.721949 Z0.000000
M63 P0

(End cutting path id: path3132)


(Start cutting path id: path3132)
(Change tool to Default tool)

M63 P0
g01 X5.935242 Y27.774409

M62 P0(Penetrate)
G01 X5.388632 Y27.774409 Z0.000000
M63 P0

(End cutting path id: path3132)


(Start cutting path id: path3132)
(Change tool to Default tool)

M63 P0
g01 X5.388632 Y27.826869

M62 P0(Penetrate)
G01 X5.935226 Y27.826869 Z0.000000
M63 P0

(End cutting path id: path3132)


(Start cutting path id: path3132)
(Change tool to Default tool)

M63 P0
g01 X5.935210 Y27.879328

M62 P0(Penetrate)
G01 X5.388632 Y27.879328 Z0.000000
M63 P0

(End cutting path id: path3132)


(Start cutting path id: path3132)
(Change tool to Default tool)

M63 P0
g01 X5.388632 Y27.931788

M62 P0(Penetrate)
G01 X5.935193 Y27.931788 Z0.000000
M63 P0

(End cutting path id: path3132)


(Start cutting path id: path3132)
(Change tool to Default tool)

M63 P0
g01 X5.935175 Y27.984248

M62 P0(Penetrate)
G01 X5.388632 Y27.984248 Z0.000000
M63 P0

(End cutting path id: path3132)


(Start cutting path id: path3132)
(Change tool to Default tool)

M63 P0
g01 X5.388632 Y28.036708

M62 P0(Penetrate)
G01 X5.935156 Y28.036708 Z0.000000
M63 P0

(End cutting path id: path3132)


(Start cutting path id: path3132)
(Change tool to Default tool)

M63 P0
g01 X5.935136 Y28.089168

M62 P0(Penetrate)
G01 X5.388632 Y28.089168 Z0.000000
M63 P0

(End cutting path id: path3132)


(Start cutting path id: path3132)
(Change tool to Default tool)

M63 P0
g01 X5.388632 Y28.141628

M62 P0(Penetrate)
G01 X5.935115 Y28.141628 Z0.000000
M63 P0

(End cutting path id: path3132)


(Start cutting path id: path3132)
(Change tool to Default tool)

M63 P0
g01 X5.935093 Y28.194088

M62 P0(Penetrate)
G01 X5.388632 Y28.194088 Z0.000000
M63 P0

(End cutting path id: path3132)


(Start cutting path id: path3132)
(Change tool to Default tool)

M63 P0
g01 X5.388632 Y28.246548

M62 P0(Penetrate)
G01 X5.935071 Y28.246548 Z0.000000
M63 P0

(End cutting path id: path3132)


(Start cutting path id: path3132)
(Change tool to Default tool)

M63 P0
g01 X5.935047 Y28.299007

M62 P0(Penetrate)
G01 X5.388632 Y28.299007 Z0.000000
M63 P0

(End cutting path id: path3132)


(Start cutting path id: path3132)
(Change tool to Default tool)

M63 P0
g01 X5.388632 Y28.351467

M62 P0(Penetrate)
G01 X5.935024 Y28.351467 Z0.000000
M63 P0

(End cutting path id: path3132)


(Start cutting path id: path3132)
(Change tool to Default tool)

M63 P0
g01 X5.934999 Y28.403929

M62 P0(Penetrate)
G01 X5.388632 Y28.403929 Z0.000000
M63 P0

(End cutting path id: path3132)


(Start cutting path id: path3132)
(Change tool to Default tool)

M63 P0
g01 X5.388632 Y28.456389

M62 P0(Penetrate)
G01 X5.934974 Y28.456389 Z0.000000
M63 P0

(End cutting path id: path3132)


(Start cutting path id: path3132)
(Change tool to Default tool)

M63 P0
g01 X5.934948 Y28.508848

M62 P0(Penetrate)
G01 X5.388632 Y28.508848 Z0.000000
M63 P0

(End cutting path id: path3132)


(Start cutting path id: path3132)
(Change tool to Default tool)

M63 P0
g01 X5.388632 Y28.561308

M62 P0(Penetrate)
G01 X5.934922 Y28.561308 Z0.000000
M63 P0

(End cutting path id: path3132)


(Start cutting path id: path3132)
(Change tool to Default tool)

M63 P0
g01 X5.934896 Y28.613768

M62 P0(Penetrate)
G01 X5.388632 Y28.613768 Z0.000000
M63 P0

(End cutting path id: path3132)


(Start cutting path id: path3132)
(Change tool to Default tool)

M63 P0
g01 X5.388632 Y28.666228

M62 P0(Penetrate)
G01 X5.934869 Y28.666228 Z0.000000
M63 P0

(End cutting path id: path3132)


(Start cutting path id: path3132)
(Change tool to Default tool)

M63 P0
g01 X5.934842 Y28.718688

M62 P0(Penetrate)
G01 X5.388632 Y28.718688 Z0.000000
M63 P0

(End cutting path id: path3132)


(Start cutting path id: path3132)
(Change tool to Default tool)

M63 P0
g01 X5.388632 Y28.771148

M62 P0(Penetrate)
G01 X5.934814 Y28.771148 Z0.000000
M63 P0

(End cutting path id: path3132)


(Start cutting path id: path3132)
(Change tool to Default tool)

M63 P0
g01 X5.934786 Y28.823608

M62 P0(Penetrate)
G01 X5.388632 Y28.823608 Z0.000000
M63 P0

(End cutting path id: path3132)


(Start cutting path id: path3132)
(Change tool to Default tool)

M63 P0
g01 X5.388632 Y28.876067

M62 P0(Penetrate)
G01 X5.934758 Y28.876067 Z0.000000
M63 P0

(End cutting path id: path3132)


(Start cutting path id: path3132)
(Change tool to Default tool)

M63 P0
g01 X5.934730 Y28.928527

M62 P0(Penetrate)
G01 X5.388632 Y28.928527 Z0.000000
M63 P0

(End cutting path id: path3132)


(Start cutting path id: path3132)
(Change tool to Default tool)

M63 P0
g01 X5.388632 Y28.980987

M62 P0(Penetrate)
G01 X5.934702 Y28.980987 Z0.000000
M63 P0

(End cutting path id: path3132)


(Start cutting path id: path3132)
(Change tool to Default tool)

M63 P0
g01 X5.934673 Y29.033447

M62 P0(Penetrate)
G01 X5.388632 Y29.033447 Z0.000000
M63 P0

(End cutting path id: path3132)


(Start cutting path id: path3132)
(Change tool to Default tool)

M63 P0
g01 X5.388632 Y29.085907

M62 P0(Penetrate)
G01 X5.934645 Y29.085907 Z0.000000
M63 P0

(End cutting path id: path3132)


(Start cutting path id: path3132)
(Change tool to Default tool)

M63 P0
g01 X5.934617 Y29.138367

M62 P0(Penetrate)
G01 X5.388632 Y29.138367 Z0.000000
M63 P0

(End cutting path id: path3132)


(Start cutting path id: path3132)
(Change tool to Default tool)

M63 P0
g01 X5.388632 Y29.190828

M62 P0(Penetrate)
G01 X5.934589 Y29.190828 Z0.000000
M63 P0

(End cutting path id: path3132)


(Start cutting path id: path3132)
(Change tool to Default tool)

M63 P0
g01 X5.934560 Y29.243288

M62 P0(Penetrate)
G01 X5.388632 Y29.243288 Z0.000000
M63 P0

(End cutting path id: path3132)


(Start cutting path id: path3132)
(Change tool to Default tool)

M63 P0
g01 X5.388632 Y29.295748

M62 P0(Penetrate)
G01 X5.934532 Y29.295748 Z0.000000
M63 P0

(End cutting path id: path3132)


(Start cutting path id: path3132)
(Change tool to Default tool)

M63 P0
g01 X5.934505 Y29.348208

M62 P0(Penetrate)
G01 X5.388632 Y29.348208 Z0.000000
M63 P0

(End cutting path id: path3132)


(Start cutting path id: path3132)
(Change tool to Default tool)

M63 P0
g01 X5.388632 Y29.400668

M62 P0(Penetrate)
G01 X5.934477 Y29.400668 Z0.000000
M63 P0

(End cutting path id: path3132)


(Start cutting path id: path3132)
(Change tool to Default tool)

M63 P0
g01 X5.934450 Y29.453127

M62 P0(Penetrate)
G01 X5.388632 Y29.453127 Z0.000000
M63 P0

(End cutting path id: path3132)


(Start cutting path id: path3132)
(Change tool to Default tool)

M63 P0
g01 X5.388632 Y29.505587

M62 P0(Penetrate)
G01 X5.934423 Y29.505587 Z0.000000
M63 P0

(End cutting path id: path3132)


(Start cutting path id: path3132)
(Change tool to Default tool)

M63 P0
g01 X5.934397 Y29.558047

M62 P0(Penetrate)
G01 X5.388632 Y29.558047 Z0.000000
M63 P0

(End cutting path id: path3132)


(Start cutting path id: path3132)
(Change tool to Default tool)

M63 P0
g01 X5.388632 Y29.610507

M62 P0(Penetrate)
G01 X5.934371 Y29.610507 Z0.000000
M63 P0

(End cutting path id: path3132)


(Start cutting path id: path3132)
(Change tool to Default tool)

M63 P0
g01 X5.934345 Y29.662967

M62 P0(Penetrate)
G01 X5.388632 Y29.662967 Z0.000000
M63 P0

(End cutting path id: path3132)


(Start cutting path id: path3132)
(Change tool to Default tool)

M63 P0
g01 X5.388632 Y29.715427

M62 P0(Penetrate)
G01 X5.934320 Y29.715427 Z0.000000
M63 P0

(End cutting path id: path3132)


(Start cutting path id: path3132)
(Change tool to Default tool)

M63 P0
g01 X5.934296 Y29.767887

M62 P0(Penetrate)
G01 X5.388632 Y29.767887 Z0.000000
M63 P0

(End cutting path id: path3132)


(Start cutting path id: path3132)
(Change tool to Default tool)

M63 P0
g01 X5.388632 Y29.820347

M62 P0(Penetrate)
G01 X5.934272 Y29.820347 Z0.000000
M63 P0

(End cutting path id: path3132)


(Start cutting path id: path3132)
(Change tool to Default tool)

M63 P0
g01 X5.934249 Y29.872806

M62 P0(Penetrate)
G01 X5.388632 Y29.872806 Z0.000000
M63 P0

(End cutting path id: path3132)


(Start cutting path id: path3132)
(Change tool to Default tool)

M63 P0
g01 X5.388632 Y29.925268

M62 P0(Penetrate)
G01 X5.934227 Y29.925268 Z0.000000
M63 P0

(End cutting path id: path3132)


(Start cutting path id: path3132)
(Change tool to Default tool)

M63 P0
g01 X5.934205 Y29.977728

M62 P0(Penetrate)
G01 X5.388632 Y29.977728 Z0.000000
M63 P0

(End cutting path id: path3132)


(Start cutting path id: path3132)
(Change tool to Default tool)

M63 P0
g01 X5.388632 Y30.030188

M62 P0(Penetrate)
G01 X5.934184 Y30.030188 Z0.000000
M63 P0

(End cutting path id: path3132)


(Start cutting path id: path3132)
(Change tool to Default tool)

M63 P0
g01 X5.934165 Y30.082647

M62 P0(Penetrate)
G01 X5.388632 Y30.082647 Z0.000000
M63 P0

(End cutting path id: path3132)


(Start cutting path id: path3132)
(Change tool to Default tool)

M63 P0
g01 X5.388632 Y30.135107

M62 P0(Penetrate)
G01 X5.934146 Y30.135107 Z0.000000
M63 P0

(End cutting path id: path3132)


(Start cutting path id: path3132)
(Change tool to Default tool)

M63 P0
g01 X5.934127 Y30.187567

M62 P0(Penetrate)
G01 X5.388632 Y30.187567 Z0.000000
M63 P0

(End cutting path id: path3132)


(Start cutting path id: path3132)
(Change tool to Default tool)

M63 P0
g01 X5.388632 Y30.240027

M62 P0(Penetrate)
G01 X5.934111 Y30.240027 Z0.000000
M63 P0

(End cutting path id: path3132)


(Start cutting path id: path3132)
(Change tool to Default tool)

M63 P0
g01 X5.934095 Y30.292487

M62 P0(Penetrate)
G01 X5.388632 Y30.292487 Z0.000000
M63 P0

(End cutting path id: path3132)


(Start cutting path id: path3132)
(Change tool to Default tool)

M63 P0
g01 X5.388632 Y30.344947

M62 P0(Penetrate)
G01 X5.934080 Y30.344947 Z0.000000
M63 P0

(End cutting path id: path3132)


